!!!!SEGMENT: Jos/Jos2203-Qui_velatus.krn
!!!COM: Josquin des Prez
!!!CDT: ~1450-1521/08/27
!!!OTL@@LAT: Qui velatus facie fuisti [6 sections]
!!!OTL2@@LAT: Hora qui ductus tercia
!!!OTL3@@LAT: Tertia pars: In flagellis potum fellis
!!!OTL4@@LAT: In amara crucis ara
!!!OTL5@@LAT: Qui jacuisti mortuus
!!!OTL6@@LAT: Christum ducem, qui per crucem
!!!AGN: Motet; Motet cycle
!!!SCT: NJE 22.3
!!!SCA: New Josquin Edition 22.3
!!!jrpid: Jos2203
!!!voices: 4
**kern	**text	**kern	**text	**kern	**text	**kern	**text
*staff4	*	*staff3	*	*staff2	*	*staff1	*
*Ivox	*	*Ivox	*	*Ivox	*	*Ivox	*
*I"Bassus	*	*I"Tenor	*	*I"Altus	*	*I"Superius	*
*I'B	*	*I'T	*	*I'A	*	*I'S	*
*clefF4	*	*clefGv2	*	*clefGv2	*	*clefG2	*
*k[]	*	*k[]	*	*k[]	*	*k[]	*
*M2/1	*	*M2/1	*	*M2/1	*	*M2/1	*
*met(C|)	*	*met(C|)	*	*met(C|)	*	*met(C|)	*
!!section: [Prima pars:] Hora qui ductus tercia
=1-	=1-	=1-	=1-	=1-	=1-	=1-	=1-
0r	.	0r	.	0A	Qui	0r	.
=2	=2	=2	=2	=2	=2	=2	=2
0r	.	0r	.	1A	ve-	0r	.
.	.	.	.	[1c	-la-	.	.
=3	=3	=3	=3	=3	=3	=3	=3
0AA	Qui	0r	.	1c]	.	0r	.
.	.	.	.	1c	-tus	.	.
=4	=4	=4	=4	=4	=4	=4	=4
1AA	ve-	0r	.	[0e	fa-	0r	.
[1C	-la-	.	.	.	.	.	.
=5	=5	=5	=5	=5	=5	=5	=5
1C]	.	0r	.	1e]	.	0r	.
1C	-tus	.	.	1e	-ci-	.	.
=6	=6	=6	=6	=6	=6	=6	=6
1D	fa-	[0A	Qui	1f	-e	0r	.
1C	-ci-	.	.	1e	.	.	.
=7	=7	=7	=7	=7	=7	=7	=7
1D	-e	0A]	.	1d	.	0r	.
1E	fu-	.	.	1c	fu-	.	.
=8	=8	=8	=8	=8	=8	=8	=8
0F	-i-	0A	ve-	0d	-i-	0r	.
=9	=9	=9	=9	=9	=9	=9	=9
[0C	-sti,	0c	-la-	[0e	-sti,	0e	Qui
=10	=10	=10	=10	=10	=10	=10	=10
0C_	.	0c	-tus	0e_	.	1e	ve-
.	.	.	.	.	.	[1g	-la-
=11	=11	=11	=11	=11	=11	=11	=11
0C]	.	[0c	fa-	0e]	.	1g]	.
.	.	.	.	.	.	1g	-tus
=12	=12	=12	=12	=12	=12	=12	=12
1F	fa-	1c]	.	1A	fu-	1a	fa-
1E	-ci-	1c	-ci-	[1e	-i-	1g	-ci-
=13	=13	=13	=13	=13	=13	=13	=13
1A	-e	1c	-e	0e]	.	1a	-e
1G	fu-	1B	fu-	.	.	1b	fu-
=14	=14	=14	=14	=14	=14	=14	=14
0F	-i-	0A	-i-	1.c	.	0cc	-i-
.	.	.	.	2d\	.	.	.
=15	=15	=15	=15	=15	=15	=15	=15
0E;	-sti,	0B;	-sti,	0e;	sti,	0g;	-sti,
=16	=16	=16	=16	=16	=16	=16	=16
0r	.	0r	.	0A	Et	0r	.
=17	=17	=17	=17	=17	=17	=17	=17
0r	.	0r	.	1A	pe-	0r	.
.	.	.	.	[1c	-nu-	.	.
=18	=18	=18	=18	=18	=18	=18	=18
0AA	Et	0r	.	1c]	.	0r	.
.	.	.	.	1c	-ri-	.	.
=19	=19	=19	=19	=19	=19	=19	=19
1AA	pe-	0r	.	[0e	-as	0r	.
[1C	-nu-	.	.	.	.	.	.
=20	=20	=20	=20	=20	=20	=20	=20
1C]	.	0r	.	1e]	.	0r	.
1C	-ri-	.	.	1e	sus-	.	.
=21	=21	=21	=21	=21	=21	=21	=21
1D	-as	[0A	Et	1f	-ti-	0r	.
1C	sus-	.	.	1e	.	.	.
=22	=22	=22	=22	=22	=22	=22	=22
1D	-ti-	0A]	.	1d	.	0r	.
1E	-nu-	.	.	1c	-nu-	.	.
=23	=23	=23	=23	=23	=23	=23	=23
0F	-i-	0A	pe-	0d	-i-	0r	.
=24	=24	=24	=24	=24	=24	=24	=24
[0C	-sti,	[0c	-nu-	[0e	-sti,	0e	Et
=25	=25	=25	=25	=25	=25	=25	=25
0C_	.	1c]	.	0e_	.	1e	pe-
.	.	1c	-ri-	.	.	[1g	-nu-
=26	=26	=26	=26	=26	=26	=26	=26
0C]	.	1c	-as	0e]	.	1g]	.
.	.	1c	sus-	.	.	1g	-ri-
=27	=27	=27	=27	=27	=27	=27	=27
1F	sus-	[0c	-ti-	1A	sus-	1a	-as
!	!	!	!	!	!LO:TX:Z=6:t=MS&colon; dotted breve	!	!
1E	.	.	.	[1e	-ti-	1g	sus-
=28	=28	=28	=28	=28	=28	=28	=28
1A	-ti-	1c]	.	1e]	.	1a	-ti-
1G	-nu-	1B	-nu-	1e	-nu-	1b	-nu-
=29	=29	=29	=29	=29	=29	=29	=29
0F	-i-	0A	-i-	1.c	-i-	0cc	-i-
.	.	.	.	2d\	.	.	.
=30	=30	=30	=30	=30	=30	=30	=30
0E;	-sti,	0B;	-sti,	0e;	-sti,	0g;	-sti,
=31	=31	=31	=31	=31	=31	=31	=31
0C	Sol	0c	Sol	0e	Sol	0g	Sol
=32	=32	=32	=32	=32	=32	=32	=32
1C	jus-	1c	jus-	1e	jus-	1g	jus-
[1D	-ti-	[1A	-ti-	[1d	-ti-	[1f	-ti-
=33	=33	=33	=33	=33	=33	=33	=33
1D]	.	1A]	.	1d]	.	1f]	.
1AA	-ci-	1A	-ci-	1c	-ci-	1e	-ci-
=34	=34	=34	=34	=34	=34	=34	=34
0AA;	-e,	0A;	-e,	0c;	-e;	0e;	-e;
=35	=35	=35	=35	=35	=35	=35	=35
0AA	Fle-	0c	Fle-	0e	Fle-	0e	Fle-
=36	=36	=36	=36	=36	=36	=36	=36
0E	-xis	1c	-xis	0e	-xis	1g	-xis
.	.	1B	il-	.	.	[1g	il-
=37	=37	=37	=37	=37	=37	=37	=37
1E	il-	0c	-lu-	1e	il-	1g]	.
1F	-lu-	.	.	1c	-lu-	1a	-lu-
=38	=38	=38	=38	=38	=38	=38	=38
1D	-sus	1d	-sus	1f	-sus	1a	-sus
[1E	ge-	[1B	ge-	[1e	ge-	[1g#i	ge-
=39	=39	=39	=39	=39	=39	=39	=39
1E]	.	1B]	.	1e]	.	1g#]	.
1AA	-ni-	1A	-ni-	1c	-ni-	1a	-ni-
=40	=40	=40	=40	=40	=40	=40	=40
0AA;	-bus,	0A;	-bus,	0c;	-bus,	0a;	-bus,
=41	=41	=41	=41	=41	=41	=41	=41
0AA	Ce-	0c	Ce-	0e	Ce-	0e	Ce-
=42	=42	=42	=42	=42	=42	=42	=42
0E	-sus	1c	-sus	1e	-sus	1g	-sus
.	.	1B	quo-	[1e	quo-	[1g	quo-
=43	=43	=43	=43	=43	=43	=43	=43
1E	quo-	0c	-que	1e]	.	1g]	.
1F	-que	.	.	1c	-que	1a	-que
=44	=44	=44	=44	=44	=44	=44	=44
1D	ver-	1d	ver-	1f	ver-	1a	ver-
[1E	-be-	[1B	-be-	[1e	-be-	[1g#i	-be-
=45	=45	=45	=45	=45	=45	=45	=45
1E]	.	1B]	.	1e]	.	1g#]	.
1AA	-ri-	1A	-ri-	1c	-ri-	1a	-ri-
=46	=46	=46	=46	=46	=46	=46	=46
0AA;	-bus,	0A;	-bus,	0c;	-bus,	0a;	-bus,
=47	=47	=47	=47	=47	=47	=47	=47
1F	Te	1c	Te	1f	Te	1a	Te
1F	pe-	1c	pe-	1f	pe-	1a	pe-
=48	=48	=48	=48	=48	=48	=48	=48
1F	-ti-	1c	-ti-	1f	-ti-	1a	-ti-
[1F	-mus	[1c	-mus	[1f	-mus	[1a	-mus
=49	=49	=49	=49	=49	=49	=49	=49
1F]	.	1c]	.	1f]	.	1a]	.
1C	at-	1c	at-	1e	at-	1g	at-
=50	=50	=50	=50	=50	=50	=50	=50
0D	-ten-	0A	-ten-	0d	-ten-	0f	-ten-
=51	=51	=51	=51	=51	=51	=51	=51
1AA	-ti-	1A	-ti-	1c	-ti-	1e	-ti-
[1AA	-us,	[1A	-us,	[1c	-us,	[1e	-us,
=52	=52	=52	=52	=52	=52	=52	=52
1AA]	.	1A]	.	1c]	.	1e]	.
1r	.	1r	.	1r	.	1r	.
=53	=53	=53	=53	=53	=53	=53	=53
1D	E-	1A	E-	1d	E-	1f	E-
1D	-sto	1A	-sto	1d	-sto	1f	-sto
=54	=54	=54	=54	=54	=54	=54	=54
1D	no-	1A	no-	1d	no-	1f	no-
[1D	-bis	[1A	-bis	[1d	-bis	[1f	-bis
=55	=55	=55	=55	=55	=55	=55	=55
1D]	.	1A]	.	1d]	.	1f]	.
1AA	pro-	1A	pro-	1c	pro-	1e	pro-
=56	=56	=56	=56	=56	=56	=56	=56
0BB-	pi-	0F	-pi-	0B-	-pi-	0d	-pi-
=57	=57	=57	=57	=57	=57	=57	=57
1FF	-ci-	1F	-ci-	1A	-ci-	1c	-ci-
[1FF	-us,	[1F	-us,	[1A	-us,	[1c	-us,
=58	=58	=58	=58	=58	=58	=58	=58
1FF]	.	1F]	-	1A]	.	1c]	.
1r	.	1r	.	1r	.	1r	.
=59	=59	=59	=59	=59	=59	=59	=59
0r	.	1D	Et	0r	.	1d	Et
.	.	1D	per	.	.	1d	per
=60	=60	=60	=60	=60	=60	=60	=60
0r	.	1D	tu-	0r	.	1d	tu-
.	.	[1F	-am	.	.	[1d	-am
=61	=61	=61	=61	=61	=61	=61	=61
0r	.	1F]	.	0r	.	1d]	.
.	.	1F	cle-	.	.	1c	cle-
=62	=62	=62	=62	=62	=62	=62	=62
0r	.	0G	-men-	0r	.	0B-i	-men-
=63	=63	=63	=63	=63	=63	=63	=63
0r	.	1A	-ti-	0r	.	1A	-ti-
.	.	[1A	-am,	.	.	[1A	-am,
=64	=64	=64	=64	=64	=64	=64	=64
0r	.	1A]	.	0r	.	1A]	.
.	.	1r	.	.	.	1r	.
=65	=65	=65	=65	=65	=65	=65	=65
1C	Per	1G	Per	1c	Per	1e	Per
1C	du-	1G	du-	1c	du-	1e	du-
=66	=66	=66	=66	=66	=66	=66	=66
1C	-cas	1G	-cas	1c	-cas	1e	-cas
[1F	nos	[1A	nos	[1c	nos	[1f	nos
=67	=67	=67	=67	=67	=67	=67	=67
1F]	.	1A]	.	1c]	.	1f]	.
1C	ad	1G	ad	1c	ad	1e	ad
=68	=68	=68	=68	=68	=68	=68	=68
1D	glo-	2F/	glo-	1A	.	1d	glo-
.	.	2D/	.	.	.	.	.
1AA	-ri-	1E	ri-	1A	glo-	1c	.
=69	=69	=69	=69	=69	=69	=69	=69
0BB-	-am,	0D	-am,	2F/	.	0d	-ri-
.	.	.	.	2D/	.	.	.
.	.	.	.	1d	-ri-	.	.
=70	=70	=70	=70	=70	=70	=70	=70
[0AA	ad	1A	ad	0c	.	[0el	-am,
.	.	[1c	glo-	.	.	.	.
=71	=71	=71	=71	=71	=71	=71	=71
1AA]	.	2c\]	.	0c	am,	0e_	.
.	.	2B\	.	.	.	.	.
[1C	glo-	1A	.	.	.	.	.
=72	=72	=72	=72	=72	=72	=72	=72
2C/]	.	1G	.	1r	.	0e_	.
2BB/	.	.	.	.	.	.	.
1AA	.	1A	-ri-	1c	ad	.	.
=73	=73	=73	=73	=73	=73	=73	=73
1GG	.	[0El	-am.	1B	.	0e_	.
1AA	-ri-	.	.	1A	.	.	.
=74	=74	=74	=74	=74	=74	=74	=74
[0EEl	-am.	0E_	.	1.c	glo-	0e_	.
.	.	.	.	2B\	.	.	.
=75	=75	=75	=75	=75	=75	=75	=75
0EE_	.	0E_	.	1.G	-ri-	0e_	.
.	.	.	.	2A/	.	.	.
=76	=76	=76	=76	=76	=76	=76	=76
0EE]	.	0E]	.	0Bl	-am.	0e]	.
!!LO:LB:i:g=z
=77||	=77||	=77||	=77||	=77||	=77||	=77||	=77||
!!section: Secunda pars: Hora qui ductus tercia
!!!OMD: [Secunda pars:] Hora qui ductus tercia
*M2/1	*	*M2/1	*	*M2/1	*	*M2/1	*
*met(C|)	*	*met(C|)	*	*met(C|)	*	*met(C|)	*
0AA	Ho-	0r	.	0r	.	0r	.
=78	=78	=78	=78	=78	=78	=78	=78
1C	-ra	0r	.	0r	.	0r	.
1C	qui	.	.	.	.	.	.
=79	=79	=79	=79	=79	=79	=79	=79
1D	duc-	0r	.	0r	.	0r	.
1D	-tus	.	.	.	.	.	.
=80	=80	=80	=80	=80	=80	=80	=80
1D	ter-	0r	.	0A	Ho-	0r	.
1D	-ci-	.	.	.	.	.	.
=81	=81	=81	=81	=81	=81	=81	=81
0C	-a	0E	Ho-	1c	-ra	0r	.
.	.	.	.	1c	qui	.	.
=82	=82	=82	=82	=82	=82	=82	=82
0GG	duc-	1G	-ra	1d	duc-	0r	.
.	.	1G	qui	1d	-tus	.	.
=83	=83	=83	=83	=83	=83	=83	=83
0D	-tus	1A	duc-	1d	ter-	0r	.
.	.	1A	-tus	1d	-ci-	.	.
=84	=84	=84	=84	=84	=84	=84	=84
0AA	ter-	1A	ter-	0c	-a	0e	Ho-
.	.	1A	-ci-	.	.	.	.
=85	=85	=85	=85	=85	=85	=85	=85
0E	-ci-	0G	-a	1B	duc-	1g	-ra
.	.	.	.	[1c	.	1g	qui
=86	=86	=86	=86	=86	=86	=86	=86
[0F	-a	0r	.	2c\]	.	1a	duc-
.	.	.	.	2A/	-tus	.	.
.	.	.	.	1A	ter-	1a	-tus
=87	=87	=87	=87	=87	=87	=87	=87
0F]	.	0r	.	0f	-ci-	1a	ter-
.	.	.	.	.	.	1a	-ci-
=88	=88	=88	=88	=88	=88	=88	=88
0C	Fu-	0c	Fu-	[0e	-a	[0g	-a
=89	=89	=89	=89	=89	=89	=89	=89
1.C	-i-	1c	-i-	0e]	.	0g]	.
.	.	1c	-sti	.	.	.	.
2D\	-sti	.	.	.	.	.	.
=90	=90	=90	=90	=90	=90	=90	=90
1E	ad	1.c	ad	0r	.	0r	.
1F	.	.	.	.	.	.	.
.	.	4B\	.	.	.	.	.
.	.	4A/	.	.	.	.	.
=91	=91	=91	=91	=91	=91	=91	=91
1E	.	1c	.	0r	.	0r	.
[1D	sup-	[1B	sup-	.	.	.	.
=92	=92	=92	=92	=92	=92	=92	=92
1D]	.	2B\]	.	0r	.	0r	.
.	.	2A/	.	.	.	.	.
1C	-pli-	[1A	-pli-	.	.	.	.
=93	=93	=93	=93	=93	=93	=93	=93
0BB	-ci-	1A]	.	0r	.	0r	.
.	.	1G#i	-ci-	.	.	.	.
=94	=94	=94	=94	=94	=94	=94	=94
[0AA	-a,	[0A	-a,	1r	.	0cc	Fu-
.	.	.	.	1A	Fu-	.	.
=95	=95	=95	=95	=95	=95	=95	=95
0AA]	.	0A]	.	1.c	-i-	1cc	-i-
.	.	.	.	.	.	1cc	-sti
.	.	.	.	2d\	-sti	.	.
=96	=96	=96	=96	=96	=96	=96	=96
0r	.	0r	.	1e	ad	1.cc	ad
.	.	.	.	1f	.	.	.
.	.	.	.	.	.	4b\	.
.	.	.	.	.	.	4a/	.
=97	=97	=97	=97	=97	=97	=97	=97
0r	.	0r	.	1e	.	1cc	.
.	.	.	.	[1d	sup-	[1b	sup-
=98	=98	=98	=98	=98	=98	=98	=98
0r	.	0r	.	1d]	.	2b\]	.
.	.	.	.	.	.	2a/	.
.	.	.	.	1c	-pli-	[1a	-pli-
=99	=99	=99	=99	=99	=99	=99	=99
0E	ad	0r	.	0B	-ci-	1a]	.
.	.	.	.	.	.	1g#i	-ci-
=100	=100	=100	=100	=100	=100	=100	=100
0F	.	0r	.	1A	-a,	[0a	-a,
.	.	.	.	1c	Chri-	.	.
=101	=101	=101	=101	=101	=101	=101	=101
1D	.	0r	.	1d	-ste	1a]	.
[1A	sup-	.	.	1e	fe-	[1cc	sup-
=102	=102	=102	=102	=102	=102	=102	=102
1A]	.	0r	.	1f	-ren	1cc]	.
1G	-pli-	.	.	2g\	.	1b	-pli-
.	.	.	.	[2e\	.	.	.
=103	=103	=103	=103	=103	=103	=103	=103
0F	-ci-	1r	.	2e\]	.	0a	-ci-
.	.	.	.	4d\	.	.	.
.	.	.	.	4c\	.	.	.
.	.	1A	Chri-	1d	.	.	.
=104	=104	=104	=104	=104	=104	=104	=104
0E	-a.	1B	-ste	0e	.	0g	-a,
.	.	1c	fe-	.	.	.	.
=105	=105	=105	=105	=105	=105	=105	=105
1r	.	1.d	-ren-	0f	.	0r	.
1D	Chri-	.	.	.	.	.	.
.	.	2c\	-do	.	.	.	.
=106	=106	=106	=106	=106	=106	=106	=106
1E	-ste	1B	hu-	1e	-do	0r	.
1F	fe-	1A	-me-	1A	hu-	.	.
=107	=107	=107	=107	=107	=107	=107	=107
1.G	-ren-	0G	-ris	2.B\	-me-	1r	.
.	.	.	.	4A/	.	.	.
.	.	.	.	4B\	.	1d	Chri-
.	.	.	.	4c\	.	.	.
2F\	-do	.	.	[2d\	.	.	.
=108	=108	=108	=108	=108	=108	=108	=108
1E	hu-	0r	.	2d\]	.	1e	-ste
.	.	.	.	2c\	.	.	.
1D	-me-	.	.	2d\	.	1f	fe-
.	.	.	.	2f\	.	.	.
=109	=109	=109	=109	=109	=109	=109	=109
0C	-ris	1r	.	0e	-ris	1.g	-ren-
.	.	1G	Cru-	.	.	.	.
.	.	.	.	.	.	2f/	-do
=110	=110	=110	=110	=110	=110	=110	=110
0r	.	1A	-cem	0r	.	1e	hu-
.	.	1B	pro	.	.	1d	-me-
=111	=111	=111	=111	=111	=111	=111	=111
1r	.	1.c	no-	1.e	Cru-	0c	-ris
1C	Cru-	.	.	.	.	.	.
.	.	2B\	-bis	4d\	.	.	.
.	.	.	.	4e\	.	.	.
=112	=112	=112	=112	=112	=112	=112	=112
1D	-cem	1A	mi-	4f\	.	0r	.
.	.	.	.	4e\	.	.	.
.	.	.	.	4d\	.	.	.
.	.	.	.	4c\	.	.	.
1E	pro	1G	-se-	1B	.	.	.
=113	=113	=113	=113	=113	=113	=113	=113
1.F	no-	0A	-ris,	2A/	-cem	1r	.
.	.	.	.	2.d\	pro	.	.
.	.	.	.	.	.	1c	Cru-
.	.	.	.	4c\	.	.	.
2E\	-bis	.	.	[2c\	no-	.	.
=114	=114	=114	=114	=114	=114	=114	=114
1D	mi-	1F	mi-	2c\]	.	1d	-cem
.	.	.	.	2B\	.	.	.
1C	.	1G	.	1c	-bis,	1e	pro
=115	=115	=115	=115	=115	=115	=115	=115
2.D\	.	2F/	.	2A/	mi-	1.f	no-
.	.	2B-i\	.	2d\	.	.	.
4E\	.	.	.	.	.	.	.
2F\	.	2A/	.	2.c\	.	.	.
2C/	.	[2G/	.	.	.	2e/	-bis
.	.	.	.	4B\	.	.	.
=116	=116	=116	=116	=116	=116	=116	=116
2D\	.	4G/]	.	2A/	.	1d	mi-
.	.	4F/	.	.	.	.	.
2BB-i/	.	4E/	.	2G/	.	.	.
.	.	4D/	.	.	.	.	.
1AA	-se-	1E	-se-	1A	-se-	1c	-se-
=117	=117	=117	=117	=117	=117	=117	=117
1BB-i	-ris,	0D	-ris.	1F	-ris,	[0d	-ris.
1GG	.	.	.	1B-	mi-	.	.
=118	=118	=118	=118	=118	=118	=118	=118
2.D\	Fac	0r	.	2A/	.	0d]	.
.	.	.	.	2.d\	.	.	.
4E\	.	.	.	.	.	.	.
2F\	.	.	.	.	.	.	.
.	.	.	.	4c\	.	.	.
[2G\	sit	.	.	4B-i\	.	.	.
.	.	.	.	4A/	.	.	.
=119	=119	=119	=119	=119	=119	=119	=119
2G\]	.	1d	Fac	2B-i\	.	0r	.
2F\	te	.	.	2A/	.	.	.
2G\	nos	2d\	sic	1B-i	-se-	.	.
[2D\	di-	2d\	te	.	.	.	.
=120	=120	=120	=120	=120	=120	=120	=120
4D\]	.	1.d	nos	1A	-ris.	0r	.
4E\	.	.	.	.	.	.	.
2F\	.	.	.	.	.	.	.
2G\	.	.	.	1r	.	.	.
[2B-i\	-li-	2d\	di-	.	.	.	.
=121	=121	=121	=121	=121	=121	=121	=121
4B-i\]	.	1c	-li-	0r	.	0r	.
4A\	.	.	.	.	.	.	.
1A	.	.	.	.	.	.	.
.	.	1B-i	-ge-	.	.	.	.
2G\	-ge-	.	.	.	.	.	.
=122	=122	=122	=122	=122	=122	=122	=122
1A	-re,	0A	-re,	2r	.	1a	Fac
.	.	.	.	2.A/	Fac	.	.
1AA	.	.	.	.	.	2a/	sit
.	.	.	.	4B\	.	.	.
.	.	.	.	2c\	.	2a/	te
=123	=123	=123	=123	=123	=123	=123	=123
0r	.	0r	.	2d\	sit	1.a	nos
.	.	.	.	2c\	te	.	.
.	.	.	.	4d\	nos	.	.
.	.	.	.	4c\	.	.	.
.	.	.	.	[2f\	di-	2a/	di-
=124	=124	=124	=124	=124	=124	=124	=124
0r	.	0r	.	4f\]	.	1g	-li-
.	.	.	.	4e\	.	.	.
.	.	.	.	1e	-li-	.	.
.	.	.	.	.	.	1f	-ge-
.	.	.	.	2d\	-ge-	.	.
=125	=125	=125	=125	=125	=125	=125	=125
2r	.	1c	Sanc-	2.e\	-re,	0e	-re,
2.AA/	Sanc-	.	.	.	.	.	.
.	.	.	.	4c\	.	.	.
.	.	2c\	-tam-	1c	.	.	.
4BB/	.	.	.	.	.	.	.
4C/	.	2c\	-que	.	.	.	.
4D\	.	.	.	.	.	.	.
=126	=126	=126	=126	=126	=126	=126	=126
2E\	-tam	1.c	vi-	0r	.	0r	.
2F\	que	.	.	.	.	.	.
2C/	vi-	.	.	.	.	.	.
[2E\	-tam	2c\	-tam	.	.	.	.
=127	=127	=127	=127	=127	=127	=127	=127
4E\]	.	1B	du-	0r	.	0r	.
4D\	.	.	.	.	.	.	.
1G	du-	.	.	.	.	.	.
.	.	1A	-ce-	.	.	.	.
2F#i\	-ce-	.	.	.	.	.	.
=128	=128	=128	=128	=128	=128	=128	=128
1G	-re,	0G	-re,	2r	.	1g	Sanc-
.	.	.	.	2.G/	Sanc-	.	.
1GG	.	.	.	.	.	2g/	-tam-
.	.	.	.	4A/	.	.	.
.	.	.	.	2B\	.	2g/	-que
=129	=129	=129	=129	=129	=129	=129	=129
0r	.	0r	.	2c\	-tam	1.g	vi-
.	.	.	.	2B\	que	.	.
.	.	.	.	4c\	vi-	.	.
.	.	.	.	4B\	.	.	.
.	.	.	.	[2e\	-tam	2g/	-tam
=130	=130	=130	=130	=130	=130	=130	=130
0r	.	0r	.	4e\]	.	1f	du-
.	.	.	.	4d\	.	.	.
.	.	.	.	1d	du-	.	.
.	.	.	.	.	.	1e	-ce-
.	.	.	.	2c#i\	-ce-	.	.
=131	=131	=131	=131	=131	=131	=131	=131
0r	.	0r	.	1d	-re,	0d	-re,
.	.	.	.	1r	.	.	.
=132	=132	=132	=132	=132	=132	=132	=132
*M3/1	*	*M3/1	*	*M3/1	*	*M3/1	*
*met(O/3)	*	*met(O/3)	*	*met(O/3)	*	*met(O/3)	*
1D	Ut	1d	Ut	1f	Ut	1d	Ut
1D	va-	1d	va-	1f	va-	1d	va-
1D	-le-	1d	-le-	1f	-le-	1d	-le-
=133	=133	=133	=133	=133	=133	=133	=133
1.D	-a	0d	-a-	0f	-a-	0a	-a-
2E\	.	.	.	.	.	.	.
1F	mus-	1d	mus	1f	-mus	1a	-mus
=134	=134	=134	=134	=134	=134	=134	=134
1G	re-	1d	re-	1d	re-	1b-i	re-
1A	.	1c	.	1f	.	1a	.
1E	-qui-	1B	-qui-	1e	-qui-	1g	-qui-
=135	=135	=135	=135	=135	=135	=135	=135
0AA	-e	0A	-e	0c	-e	0a	-e
1r	.	1r	.	1r	.	1r	.
=136	=136	=136	=136	=136	=136	=136	=136
*M2/1	*	*M2/1	*	*M2/1	*	*M2/1	*
*met(C|)	*	*met(C|)	*	*met(C|)	*	*met(C|)	*
1C	Fru-	1G	Fru-	1c	Fru-	1e	Fru-
1C	-i	1G	-i	1c	-i	1e	-i
=137	=137	=137	=137	=137	=137	=137	=137
1C	ce-	1G	ce-	1c	ce-	1e	ce-
[1F	-les-	[1A	-les-	[1c	-les-	[1f	-les-
=138	=138	=138	=138	=138	=138	=138	=138
1F]	.	1A]	.	1c]	.	1f]	.
1C	-tis	1G	-tis	1c	-tis	1e	-tis
=139	=139	=139	=139	=139	=139	=139	=139
1D	pa-	2F/	pa-	1A	.	1d	pa-
.	.	2D/	.	.	.	.	.
1AA	.	1E	-tri-	1A	pa-	1c	.
=140	=140	=140	=140	=140	=140	=140	=140
0BB-i	-tri-	0D	-e,	2F/	.	0d	-tri-
.	.	.	.	2D/	.	.	.
.	.	.	.	1d	-tri-	.	.
=141	=141	=141	=141	=141	=141	=141	=141
[0AA	-e,	1A	pa-	[0c	-e,	[0el	-e.
.	.	[1c	.	.	.	.	.
=142	=142	=142	=142	=142	=142	=142	=142
1AA]	.	2c\]	.	0c]	.	0e_	.
.	.	2B\	.	.	.	.	.
[1C	pa-	1A	.	.	.	.	.
=143	=143	=143	=143	=143	=143	=143	=143
2C/]	.	1G	-tri-	1r	.	0e_	.
2BB/	.	.	.	.	.	.	.
1AA	.	1A	.	1c	pa-	.	.
=144	=144	=144	=144	=144	=144	=144	=144
1GG	-tri-	[0El	-e.	1B	.	0e_	.
1AA	.	.	.	1A	.	.	.
=145	=145	=145	=145	=145	=145	=145	=145
[0EEl	-e.	0E_	.	1.c	-tri-	0e_	.
.	.	.	.	2B\	.	.	.
=146	=146	=146	=146	=146	=146	=146	=146
0EE]	.	0E]	.	0Gl	-e.	0e]	.
!!LO:LB:i:g=z
=147||	=147||	=147||	=147||	=147||	=147||	=147||	=147||
!!section: Tertia pars: In flagellis potum fellis
!!!OMD: [Tertia pars:] In flagellis potum fellis
*M2/1	*	*M2/1	*	*M2/1	*	*M2/1	*
*met(C|)	*	*met(C|)	*	*met(C|)	*	*met(C|)	*
0A	In	0A	In	0e	In	0a	In
=148	=148	=148	=148	=148	=148	=148	=148
0A	fla-	0c	fla-	1e	fla-	0a	fla-
.	.	.	.	[1c	-gel-	.	.
=149	=149	=149	=149	=149	=149	=149	=149
[0F	-gel-	[0c	-gle-	1c]	.	[0a	-gel-
.	.	.	.	1A	.	.	.
=150	=150	=150	=150	=150	=150	=150	=150
1F]	.	1c]	.	[0A	-lis	1a]	.
1D	.	1d	.	.	.	1f	.
=151	=151	=151	=151	=151	=151	=151	=151
[0D;	-lis	1.d	-lis	0A]	.	[0f;	-lis
.	.	2c\	.	.	.	.	.
=152	=152	=152	=152	=152	=152	=152	=152
0D]	.	0A;	.	0d;	.	0f]	.
=153	=153	=153	=153	=153	=153	=153	=153
0G	po-	0G	po-	0d	po-	0g	po-
=154	=154	=154	=154	=154	=154	=154	=154
0G	-tum	0B	-tum	1d	-tum	0g	-tum
.	.	.	.	[1B	fel-	.	.
=155	=155	=155	=155	=155	=155	=155	=155
[0E	fel-	[0B	fel-	1B]	.	[0g	fel-
.	.	.	.	1G	.	.	.
=156	=156	=156	=156	=156	=156	=156	=156
1E]	.	1B]	.	[0G	-lis	1g]	.
1C	.	1c	.	.	.	1e	.
=157	=157	=157	=157	=157	=157	=157	=157
[0C;	-lis	1.c	-lis	0G]	.	[0e;	-lis
.	.	2B\	.	.	.	.	.
=158	=158	=158	=158	=158	=158	=158	=158
0C]	.	0G;	.	0c;	.	0e]	.
=159	=159	=159	=159	=159	=159	=159	=159
0D	Bi-	0d	Bi-	0A	Bi-	0f	Bi-
=160	=160	=160	=160	=160	=160	=160	=160
1D	-bi-	1A	-bi-	0F	-bi-	1f	-bi-
1D	-sti	1B	-sti	.	.	1f	sti-
=161	=161	=161	=161	=161	=161	=161	=161
[0C	a-	1.c	a-	0G	-sti	1e	-a
.	.	.	.	.	.	1e	ma-
.	.	2B\	.	.	.	.	.
=162	=162	=162	=162	=162	=162	=162	=162
1C]	.	1G	.	1E	a-	1.g	-ris-
1C	-ma-	1A	-ma-	1E	-ma-	.	.
.	.	.	.	.	.	2f/	.
=163	=163	=163	=163	=163	=163	=163	=163
[0BB-	-ris-	1.B-	-ris-	1.G	-ris-	1d	.
.	.	.	.	.	.	1d	-si-
.	.	2A/	.	2F/	.	.	.
=164	=164	=164	=164	=164	=164	=164	=164
1BB-]	.	1F	.	1D	.	1.f	-mum;
1BB-i	-si-	1G	-si-	1D	-si-	.	.
.	.	.	.	.	.	2e/	.
=165	=165	=165	=165	=165	=165	=165	=165
0AAl;	-mum;	0Al;	-mum;	0El;	-mum;	0cl;	.
=166	=166	=166	=166	=166	=166	=166	=166
0r	.	0r	.	1c	Om-	1e	Om-
.	.	.	.	1c	-ni	1e	-ni
=167	=167	=167	=167	=167	=167	=167	=167
0r	.	0r	.	1c	gen-	1e	gen-
.	.	.	.	[1B	-ti	[1g	-ti
=168	=168	=168	=168	=168	=168	=168	=168
0r	.	0r	.	1B]	.	1g]	.
.	.	.	.	1c	re-	1g	re-
=169	=169	=169	=169	=169	=169	=169	=169
0r	.	0r	.	1A	-col-	1.a	-col-
.	.	.	.	[1B	-len-	.	.
.	.	.	.	.	.	4g#i/	.
.	.	.	.	.	.	4f#i/	.
=170	=170	=170	=170	=170	=170	=170	=170
0r	.	0r	.	1B]	.	1g#i	-len-
.	.	.	.	[1A	-ti,	[1a	-ti,
=171	=171	=171	=171	=171	=171	=171	=171
0r	.	0r	.	1A]	.	1a]	.
.	.	.	.	1r	.	1r	.
=172	=172	=172	=172	=172	=172	=172	=172
1F	Om-	1A	Om-	0c	re-	[0a	re-
1F	-ni	1A	-ni	.	.	.	.
=173	=173	=173	=173	=173	=173	=173	=173
1F	gen-	1A	gen-	1d	.	1a]	.
[1E	-ti	[1c	-ti	[1e	-col-	[1g	-col-
=174	=174	=174	=174	=174	=174	=174	=174
1E]	.	1c]	.	1e]	.	1g]	.
1F	re-	1c	re-	1A	.	1a	.
=175	=175	=175	=175	=175	=175	=175	=175
1D	-col-	1.d	-col-	1B	-len-	1f	-len-
[1E	-len-	.	.	[1G	.	[1g	.
.	.	4c#i\	.	.	.	.	.
.	.	4B\	.	.	.	.	.
=176	=176	=176	=176	=176	=176	=176	=176
1E]	.	1c#i	-len-	1G]	.	2g/]	.
.	.	.	.	.	.	4f/	.
.	.	.	.	.	.	4e/	.
[1D	-ti,	[1d	-ti,	[1A	-ti,	[1f	-ti,
=177	=177	=177	=177	=177	=177	=177	=177
1D]	.	1d]	.	1A]	.	1f]	.
1r	.	1r	.	1r	.	1r	.
=178	=178	=178	=178	=178	=178	=178	=178
1D	Tu-	1d	Tu-	1f	Tu-	1a	Tu-
1D	-e	1d	-e	1f	-e	1a	-e
=179	=179	=179	=179	=179	=179	=179	=179
1D	mor-	1d	mor-	1f	mor-	1b	mor-
[1C	-tis	[1e	-tis	[1g	-tis	[1cc	-tis
=180	=180	=180	=180	=180	=180	=180	=180
1C]	.	1e]	.	1g]	.	1cc]	.
1AA	sup-	1c	sup-	1f	sup-	1cc	sup-
=181	=181	=181	=181	=181	=181	=181	=181
0GG	-pli-	0d	-pli	0g	-pli-	1.b	-pli-
.	.	.	.	.	.	2b\	-ci-
=182	=182	=182	=182	=182	=182	=182	=182
2.AA/	-ci-	1c	-ci-	1e	-ci-	2.cc\	-um,
4BB/	.	.	.	.	.	4b\	.
[1C	-um,	[1c	-um,	[1e	-um,	[1g	.
=183	=183	=183	=183	=183	=183	=183	=183
1C]	.	1c]	.	1e]	.	1g]	.
1r	.	1r	.	1r	.	1r	.
=184	=184	=184	=184	=184	=184	=184	=184
0r	.	0r	.	1c	Da	1e	Da
.	.	.	.	1c	vir-	1e	vir-
=185	=185	=185	=185	=185	=185	=185	=185
0r	.	0r	.	1c	-tu-	1e	-tu-
.	.	.	.	[1B	-tem	[1g	-tem
=186	=186	=186	=186	=186	=186	=186	=186
0r	.	0r	.	1B]	.	1g]	.
.	.	.	.	1c	et	1g	et
=187	=187	=187	=187	=187	=187	=187	=187
0r	.	0r	.	1A	sa-	1.a	sa-
.	.	.	.	[1B	-lu-	.	.
.	.	.	.	.	.	4g#i/	.
.	.	.	.	.	.	4f#i/	.
=188	=188	=188	=188	=188	=188	=188	=188
0r	.	0r	.	1B]	.	1g#i	-lu-
.	.	.	.	[1A	-tem,	[1a	-tem,
=189	=189	=189	=189	=189	=189	=189	=189
0r	.	0r	.	1A]	.	1a]	.
.	.	.	.	1r	.	1r	.
=190	=190	=190	=190	=190	=190	=190	=190
1F	Da	1A	Da	0c	et	[0a	et
1F	vir-	1A	vir-	.	.	.	.
=191	=191	=191	=191	=191	=191	=191	=191
1F	-tu-	1A	-tu-	1d	.	1a]	.
[1E	-tem	[1c	-tem	[1e	sa-	[1g	sa-
=192	=192	=192	=192	=192	=192	=192	=192
1E]	.	1c]	.	1e]	.	1g]	.
1F	et	1c	et	1A	.	1a	.
=193	=193	=193	=193	=193	=193	=193	=193
1D	sa-	1.d	sa-	1B	-lu-	1f	-lu-
[1E	-lu-	.	.	[1G	.	[1g	.
.	.	4c#i\	.	.	.	.	.
.	.	4B\	.	.	.	.	.
=194	=194	=194	=194	=194	=194	=194	=194
1E]	.	1c#i	-lu-	1G]	.	2g/]	.
.	.	.	.	.	.	4f/	.
.	.	.	.	.	.	4e/	.
[1D	-tem,	[1d	-tem,	[1A	-tem,	[1f	-tem,
=195	=195	=195	=195	=195	=195	=195	=195
1D]	.	1d]	.	1A]	.	1f]	.
1r	.	1r	.	1r	.	1r	.
=196	=196	=196	=196	=196	=196	=196	=196
1C	Chri-	1G	Chri-	1c	Chri-	1e	Chri-
1C	-ste	1G	-ste	1c	-ste	1e	-ste
=197	=197	=197	=197	=197	=197	=197	=197
1C	re-	1G	re-	1c	re-	1e	re-
[1F	-demp-	[1A	-demp-	[1c	-demp-	[1f	-demp-
=198	=198	=198	=198	=198	=198	=198	=198
1F]	.	1A]	.	1c]	.	1f]	.
1C	-tor	1G	-tor	1c	-tor	1e	-tor
=199	=199	=199	=199	=199	=199	=199	=199
1D	om-	2F/	om-	1A	.	1d	om-
.	.	2D/	.	.	.	.	.
1AA	.	1E	-ni-	1A	om-	1c	.
=200	=200	=200	=200	=200	=200	=200	=200
0BB-i	-ni-	0D	-um,	2F/	.	0d	-ni-
.	.	.	.	2D/	.	.	.
.	.	.	.	1d	-ni-	.	.
=201	=201	=201	=201	=201	=201	=201	=201
[0AA	-um,	1A	om-	[0c	-um,	[0el	-um.
.	.	[1c	.	.	.	.	.
=202	=202	=202	=202	=202	=202	=202	=202
1AA]	.	2c\]	.	0c]	.	0e_	.
.	.	2B\	.	.	.	.	.
[1C	om-	1A	.	.	.	.	.
=203	=203	=203	=203	=203	=203	=203	=203
2C/]	.	1G	-ni-	1r	.	0e_	.
2BB/	.	.	.	.	.	.	.
1AA	.	1A	.	1c	om-	.	.
=204	=04	=204	=204	=204	=204	=204	=204
1GG	-ni-	[0El	-um.	1B	.	0e_	.
1AA	.	.	.	1A	.	.	.
=205	=205	=205	=205	=205	=205	=205	=205
[0EEl	-um.	0E_	.	1.c	-ni-	0e_	.
.	.	.	.	2B\	.	.	.
=206	=206	=206	=206	=206	=206	=206	=206
0EE]	.	0E]	.	0Gl	-um.	0e]	.
!!LO:LB:i:g=z
=207||	=207||	=207||	=207||	=207||	=207||	=207||	=207||
!!section: Honor et benedictio
!!!OMD: Honor et benedictio
*M2/1	*	*M2/1	*	*M2/1	*	*M2/1	*
*met(C|)	*	*met(C|)	*	*met(C|)	*	*met(C|)	*
0E	Ho-	0E	Ho-	0e	Ho-	0g	Ho-
=208	=208	=208	=208	=208	=208	=208	=208
0E;	-nor	0G;	-nor	0e;	-nor	0b;	-nor
=209	=209	=209	=209	=209	=209	=209	=209
0AA	et	0A	et	0c	et	0cc	et
=210	=210	=210	=210	=210	=210	=210	=210
1E	be-	1G	be-	1g	be-	1b	be-
1F	-ne-	1A	-ne-	1f	-ne-	1a	-ne-
=211	=211	=211	=211	=211	=211	=211	=211
[0C	-dic-	[0c	-dic-	[0e	-dic-	[0g	-dic-
=212	=212	=212	=212	=212	=212	=212	=212
1C]	.	1c]	.	1e]	.	1g]	.
1C	-ti-	1c	-ti-	1e	-ti-	1g	-ti-
=213	=213	=213	=213	=213	=213	=213	=213
0C;	-o	0c;	-o	0e;	-o	0g;	-o
=214	=214	=214	=214	=214	=214	=214	=214
0C	Sit	0E	Sit	0c	Sit	0g	Sit
=215	=215	=215	=215	=215	=215	=215	=215
0C	cru-	0G	cru-	[0c	cru-	0e	cru-
=216	=216	=216	=216	=216	=216	=216	=216
0F	-ci-	0A	-ci-	1c]	.	0f	-ci-
.	.	.	.	1c	-ci-	.	.
=217	=217	=217	=217	=217	=217	=217	=217
1E	-fi-	1G	-fi-	1c	-fi-	1g	-fi-
1D	-xo	1A	-xo	1F	-xo	1f	-xo
=218	=218	=218	=218	=218	=218	=218	=218
[0AA	fi-	[0c	fi-	[0A	fi-	[0e	fi-
=219	=219	=219	=219	=219	=219	=219	=219
1AA]	.	1c]	.	1A]	.	1e]	.
1AA	-li-	1c	-li-	1A	-li-	1e	-li-
=220	=220	=220	=220	=220	=220	=220	=220
0AA;	-o,	0c;	-o,	0A;	-o,	0e;	-o,
=221	=221	=221	=221	=221	=221	=221	=221
0AA	Qui	0e	Qui	0c	Qui	0cc	Qui
=222	=222	=222	=222	=222	=222	=222	=222
0C	su-	0e	su-	1c	su-	0cc	su-
.	.	.	.	[1g	-o	.	.
=223	=223	=223	=223	=223	=223	=223	=223
1GG	-o	1d	-o	1g]	.	1b	-o
1D	sup-	1d	sup-	1f	sup-	1a	sup-
=224	=224	=224	=224	=224	=224	=224	=224
1.AA	-pli-	[0c	-pli-	[0e	-pli-	[0cc	-pli-
2BB/	.	.	.	.	.	.	.
=225	=225	=225	=225	=225	=225	=225	=225
1C	.	1c]	.	1e]	.	1cc]	.
1C	-ci-	1c	-ci	1e	-ci-	1g	-ci-
=226	=226	=226	=226	=226	=226	=226	=226
0C;	-o	0c;	-o	0e;	-o	0g;	-o
=227	=227	=227	=227	=227	=227	=227	=227
0C	Nos	0e	Nos	0g	Nos	0cc	Nos
=228	=228	=228	=228	=228	=228	=228	=228
1G	re-	1d	re-	1g	re-	1b	re-
1A	-de-	1c	-de-	1e	-de-	1a	-de-
=229	=229	=229	=229	=229	=229	=229	=229
0E;	-mit	0B;	-mit	0e;	-mit	0g;	-mit
=230	=230	=230	=230	=230	=230	=230	=230
[0E	ab	[0G	ab	[0e	ab	[0g	ab
=231	=231	=231	=231	=231	=231	=231	=231
1E]	.	1G]	.	1e]	.	1g]	.
1E	in-	1G	in-	1e	in-	1g	in-
=232	=232	=232	=232	=232	=232	=232	=232
[0C	-fer-	[0G	-fer-	[0e	-fer-	1g	-fer-
.	.	.	.	.	.	1e	.
=233	=233	=233	=233	=233	=233	=233	=233
1C]	.	1G]	.	1e]	.	[0el	-no.
1AA	.	1A	.	1c	.	.	.
=234	=234	=234	=234	=234	=234	=234	=234
0AAl	-no.	0Al	-no.	0cl	-no.	0e]	.
!!LO:LB:i:g=z
=235||	=235||	=235||	=235||	=235||	=235||	=235||	=235||
!!section: Quarta pars: In amara crucis ara
!!!OMD: [Quarta pars:] In amara crucis ara
1r	.	0E	In	0r	.	0r	.
1E	In	.	.	.	.	.	.
=236	=236	=236	=236	=236	=236	=236	=236
1E	a-	1G	a-	0r	.	0r	.
2.F\	-ma-	1A	-ma-	.	.	.	.
4E\	.	.	.	.	.	.	.
=237	=237	=237	=237	=237	=237	=237	=237
2D\	.	1A	-ra	0r	.	0r	.
2C/	.	.	.	.	.	.	.
1BB	.	1G	.	.	.	.	.
=238	=238	=238	=238	=238	=238	=238	=238
0AA	-ra	0r	.	1r	.	0e	In
.	.	.	.	1e	In	.	.
=239	=239	=239	=239	=239	=239	=239	=239
0r	.	0r	.	1e	a-	1g	a-
.	.	.	.	2.f\	-ma-	1a	-ma-
.	.	.	.	4e\	.	.	.
=240	=240	=240	=240	=240	=240	=240	=240
1r	.	1r	.	2d\	.	1a	-ra
.	.	.	.	2c\	.	.	.
1E	cru-	1G	cru-	1B	.	1g	.
=241	=241	=241	=241	=241	=241	=241	=241
1.F	-cis	1A	-cis	0A	-ra	0r	.
.	.	[1c	a-	.	.	.	.
2E\	.	.	.	.	.	.	.
=242	=242	=242	=242	=242	=242	=242	=242
1C	a-	2c\]	.	0r	.	0r	.
.	.	2B\	.	.	.	.	.
1D	.	1A	.	.	.	.	.
=243	=243	=243	=243	=243	=243	=243	=243
0E	-ra	0G	-ra	1r	.	1r	.
.	.	.	.	1e	cru-	1g	cru-
=244	=244	=244	=244	=244	=244	=244	=244
0r	.	0r	.	1.f	-cis	1a	-cis
.	.	.	.	.	.	[1cc	a-
.	.	.	.	2e\	.	.	.
=245	=245	=245	=245	=245	=245	=245	=245
0r	.	0r	.	1c	a-	2cc\]	.
.	.	.	.	.	.	2b\	.
.	.	.	.	1d	.	1a	.
=246	=246	=246	=246	=246	=246	=246	=246
1r	.	1r	.	0e	-ra	0g	-ra
1E	Fu-	1G	Fu-	.	.	.	.
=247	=247	=247	=247	=247	=247	=247	=247
1F	-di-	1A	-di-	0r	.	0r	.
1E	-sti	1B	-sti	.	.	.	.
=248	=248	=248	=248	=248	=248	=248	=248
1AA	ri-	1c	ri-	1r	.	1r	.
1E	-vos	2B\	-vos	2r	.	1g	Fu-
.	.	[2c\	san-	[2e\	Fu-	.	.
=249	=249	=249	=249	=249	=249	=249	=249
2C/	san-	4c\]	.	2e\]	.	1a	-di-
.	.	4B\	.	.	.	.	.
2D\	.	1A	.	1f	-di-	.	.
1BB	-gui-	.	.	.	.	1b	-sti
.	.	2G#i/	-gui-	4e\	.	.	.
.	.	.	.	4d\	.	.	.
=250	=250	=250	=250	=250	=250	=250	=250
1AA	-nis,	1A	-nis,	2f\	-sti	1cc	ri-
.	.	.	.	2.e\	ri-	.	.
1r	.	1r	.	.	.	2b\	-vos
.	.	.	.	4d\	.	.	.
.	.	.	.	2e\	.	[2cc\	san-
=251	=251	=251	=251	=251	=251	=251	=251
1r	.	0r	.	2c\	-vos	4cc\]	.
.	.	.	.	.	.	4b\	.
.	.	.	.	2d\	san-	1a	.
1E	Je-	.	.	1B	-gui-	.	.
.	.	.	.	.	.	2g#i/	-gui-
=252	=252	=252	=252	=252	=252	=252	=252
1F	-su	1r	.	0A	-nis,	0a	-nis,
1F	Chri-	1A	Je-	.	.	.	.
=253	=253	=253	=253	=253	=253	=253	=253
1E	-ste,	1B	-su	0r	.	0r	.
1E	rex	[1c	Chri-	.	.	.	.
=254	=254	=254	=254	=254	=254	=254	=254
1F	be-	2c\]	.	0r	.	1r	.
.	.	2B\	.	.	.	.	.
1F	-ni-	1A	.	.	.	1a	Je-
=255	=255	=255	=255	=255	=255	=255	=255
0E	-gne,	0G	-ste,	1r	.	1b	-su
.	.	.	.	1e	Je-	[1cc	Chri-
=256	=256	=256	=256	=256	=256	=256	=256
0r	.	0r	.	1c	-su	2cc\]	.
.	.	.	.	.	.	2b\	.
.	.	.	.	1d	-Chri-	1a	.
=257	=257	=257	=257	=257	=257	=257	=257
1r	.	1r	.	0e	-ste,	0g	-ste,
1E	rex	1G	rex	.	.	.	.
=258	=258	=258	=258	=258	=258	=258	=258
1C	be-	2A/	be-	0r	.	0r	.
.	.	2E/	.	.	.	.	.
1D	-ni-	1F	-ni-	.	.	.	.
=259	=259	=259	=259	=259	=259	=259	=259
0E	-gne,	0E	-gne,	1r	.	1r	.
.	.	.	.	1e	rex	1g	rex
=260	=260	=260	=260	=260	=260	=260	=260
0r	.	0r	.	1c	be-	2a/	be-
.	.	.	.	.	.	2e/	.
.	.	.	.	1d	-ni-	1f	-ni-
=261	=261	=261	=261	=261	=261	=261	=261
0AA	Con-	1C	Con-	0e	-gne,	0e	-gne,
.	.	[1E	-sors	.	.	.	.
=262	=262	=262	=262	=262	=262	=262	=262
1AA	-sors	1E]	.	1r	.	0r	.
1AA	pa-	1F	pa-	1A	Con-	.	.
=263	=263	=263	=263	=263	=263	=263	=263
2GG/	-ter-	0G	-ter-	2B\	-sors	2r	.
2C/	.	.	.	2c\	.	2e/	Con-
2BB/	.	.	.	2d\	.	2d/	.
[2C/	.	.	.	[2G/	pa-	[2e/	-sors
=264	=264	=264	=264	=264	=264	=264	=264
2C/]	.	1E	-ni	2G/]	.	4e/]	.
.	.	.	.	.	.	4d/	.
2AA/	-ni	.	.	2.A/	-ter-	4c/	.
.	.	.	.	.	.	4B/	.
[1D	lu-	[1F	lu-	.	.	2A/	.
.	.	.	.	4G/	.	.	.
.	.	.	.	4F/	.	[2f/	pa-
.	.	.	.	4E/	.	.	.
=265	=265	=265	=265	=265	=265	=265	=265
2D\]	.	2F/]	.	2D/	.	4f/]	.
.	.	.	.	.	.	4e/	.
2GG/	.	2G/	.	2B-\	.	1d	-ter-
1AA	-mi-	1E	-mi-	1A	-ni	.	.
.	.	.	.	.	.	2c#i/	.
=266	=266	=266	=266	=266	=266	=266	=266
0r	.	0D	-nis,	2r	.	2d/	-ni
.	.	.	.	2d\	lu-	2a/	lu-
.	.	.	.	2e\	.	2g/	.
.	.	.	.	[2f\	.	[2a/	.
=267	=267	=267	=267	=267	=267	=267	=267
0r	.	0r	.	4f\]	.	4a/]	.
.	.	.	.	4e\	.	4g/	.
.	.	.	.	4d\	.	4f/	.
.	.	.	.	4c\	.	4e/	.
.	.	.	.	1d	-mi-	1f	-mi-
=268	=268	=268	=268	=268	=268	=268	=268
0AA;l	-nis.	0A;l	-nis.	0c;l	-nis.	0e;l	-nis.
=269	=269	=269	=269	=269	=269	=269	=269
0AA	San-	0r	.	1r	.	0r	.
.	.	.	.	1A	San-	.	.
=270	=270	=270	=270	=270	=270	=270	=270
1C	-guis	0r	.	1G	-guis	0r	.
1D	Chri-	.	.	[1F	Chri-	.	.
=271	=271	=271	=271	=271	=271	=271	=271
1D	-sti,	0r	.	1F]	.	0r	.
1C	.	.	.	1E	-sti,	.	.
=272	=272	=272	=272	=272	=272	=272	=272
0r	.	0A	San-	0r	.	1r	.
.	.	.	.	.	.	1a	San-
=273	=273	=273	=273	=273	=273	=273	=273
0r	.	1c	-guis	0r	.	1g	-guis
.	.	1d	Chri-	.	.	[1f	Chri-
=274	=274	=274	=274	=274	=274	=274	=274
1r	.	1d	-sti,	1r	.	1f]	.
1C	qui	1c	.	2r	.	1e	-sti,
.	.	.	.	2G/	qui	.	.
=275	=275	=275	=275	=275	=275	=275	=275
1D	fu-	0r	.	2F/	fu-	0r	.
.	.	.	.	2.A/	-i-	.	.
[1F	-i-	.	.	.	.	.	.
.	.	.	.	4G/	.	.	.
.	.	.	.	4F/	.	.	.
.	.	.	.	4E/	.	.	.
=276	=276	=276	=276	=276	=276	=276	=276
2F\]	.	0r	.	2D/	.	0r	.
2E\	.	.	.	2G/	.	.	.
1D	.	.	.	2F/	.	.	.
.	.	.	.	[2A/	.	.	.
=277	=277	=277	=277	=277	=277	=277	=277
0C	-sti	1r	.	2A/]	.	1r	.
.	.	.	.	4G/	.	.	.
.	.	.	.	4F/	.	.	.
.	.	1c	qui	1E	-sti	2r	.
.	.	.	.	.	.	2g/	qui
=278	=278	=278	=278	=278	=278	=278	=278
0r	.	1d	fu-	0r	.	2f/	fu-
.	.	.	.	.	.	2.a/	-i-
.	.	[1f	-i-	.	.	.	.
.	.	.	.	.	.	4g/	.
.	.	.	.	.	.	4f/	.
.	.	.	.	.	.	4e/	.
=279	=279	=279	=279	=279	=279	=279	=279
0r	.	2f\]	.	0r	.	2d/	.
.	.	2e\	.	.	.	2g/	.
.	.	1d	.	.	.	2f/	.
.	.	.	.	.	.	[2a/	.
=280	=280	=280	=280	=280	=280	=280	=280
1r	.	0c	-sti	2r	.	2a/]	.
.	.	.	.	2A/	per-	4g/	.
.	.	.	.	.	.	4f/	.
1C	per-	.	.	2G/	-emp-	1e	-sti
.	.	.	.	[2A/	-tor...	.	.
=281	=281	=281	=281	=281	=281	=281	=281
1D	-emp-	0r	.	2A/]	.	0r	.
.	.	.	.	4G/	.	.	.
.	.	.	.	4F/	.	.	.
1E	-tor	.	.	2G/	.	.	.
.	.	.	.	2E/	.	.	.
=282	=282	=282	=282	=282	=282	=282	=282
1F	hos-	1r	.	1D	.	2r	.
.	.	.	.	.	.	2a/	per-
2E\	-tis	1c	per-	1r	.	2g/	-emp-
[2F\	in	.	.	.	.	[2a/	-tor
=283	=283	=283	=283	=283	=283	=283	=283
4F\]	.	1d	-emp-	0r	.	2a/]	.
4E\	.	.	.	.	.	.	.
1D	.	.	.	.	.	4g/	.
.	.	.	.	.	.	4f/	.
.	.	1e	-tor	.	.	2e/	.
2C#i/	-vi-	.	.	.	.	2g/	hos-
=284	=284	=284	=284	=284	=284	=284	=284
1D	-di,	1f	hos-	0r	.	2f/	-ti
.	.	.	.	.	.	2a/	in-
1r	.	2e\	-tis	.	.	2g/	.
.	.	[2f\	in-	.	.	[2a/	.
=285	=285	=285	=285	=285	=285	=285	=285
0r	.	4f\]	.	0r	.	2a/]	.
.	.	4e\	.	.	.	.	.
.	.	1d	.	.	.	4g/	.
.	.	.	.	.	.	4f/	.
.	.	.	.	.	.	1e	-vi-
.	.	2c#i\	-vi-	.	.	.	.
=286	=286	=286	=286	=286	=286	=286	=286
1r	.	0d	-di,	2r	.	0d	-di,
.	.	.	.	2G/	Fac	.	.
1D	Fac	.	.	2A/	nos	.	.
.	.	.	.	[2B\	i-	.	.
=287	=287	=287	=287	=287	=287	=287	=287
1E	nos	0r	.	2B\]	.	1r	.
.	.	.	.	2c\	.	.	.
[1F	-i-	.	.	2A/	.	1a	Fac
.	.	.	.	[2d\	.	.	.
=288	=288	=288	=288	=288	=288	=288	=288
2F\]	.	1r	.	2d\]	.	2a/	nos
2E\	.	.	.	2G/	.	2g/	.
1D	.	1d	Fac	2A/	.	1f	i-
.	.	.	.	2B\	.	.	.
=289	=289	=289	=289	=289	=289	=289	=289
1C	-re	1e	nos	1c	-re	2e/	-re
.	.	.	.	.	.	2c/	et
1r	.	[1f	i-	1r	.	2d/	ve-
.	.	.	.	.	.	[2a/	.
=290	=290	=290	=290	=290	=290	=290	=290
0r	.	2f\]	.	0r	.	2a/]	.
.	.	2e\	.	.	.	2g/	.
.	.	1d	.	.	.	1f	-ni-
=291	=291	=291	=291	=291	=291	=291	=291
1r	.	0c	-re	2r	.	0e	-re,
.	.	.	.	1c	et	.	.
1C	et	.	.	.	.	.	.
.	.	.	.	4B\	.	.	.
.	.	.	.	4A/	.	.	.
=292	=292	=292	=292	=292	=292	=292	=292
2D\	ve-	0r	.	2B\	ve-	0r	.
2AA/	.	.	.	1A	.	.	.
1BB	-ni-	.	.	.	.	.	.
.	.	.	.	2G#i/	.	.	.
=293	=293	=293	=293	=293	=293	=293	=293
0AA	-re,	1r	.	1.A	.	2r	.
.	.	.	.	.	.	1cc	et
.	.	1c	et	.	.	.	.
.	.	.	.	4G/	.	4b\	.
.	.	.	.	4A/	.	4a/	.
=294	=294	=294	=294	=294	=294	=294	=294
1r	.	2d\	ve-	2G/	-ni-	2b\	ve-
.	.	2A/	.	2A/	.	1a	.
1E	et	1B	-ni-	1E	-re,	.	.
.	.	.	.	.	.	2g/	.
=295	=295	=295	=295	=295	=295	=295	=295
2F\	ve-	[0A	-re	2r	.	2a/	.
2C/	.	.	.	2c\	ve-	2e/	.
1D	-ni-	.	.	2A/	-ni-	1f	-ni-
.	.	.	.	2B\	.	.	.
=296	=296	=296	=296	=296	=296	=296	=296
[0AA	-re	0A_	.	[0c	-re	[0e	-re
=297	=297	=297	=297	=297	=297	=297	=297
0AA]	.	0A]	.	0c]	.	0e]	.
=298	=298	=298	=298	=298	=298	=298	=298
*	*	*	*	*M2/1	*	*M2/1	*
*	*	*	*	*met(O/3)	*	*met(O/3)	*
0r	.	0r	.	3%2d	Ad	3%2d	Ad
.	.	.	.	3%2d	ce-	3%2d	ce-
.	.	.	.	3%2d	-nam	3%2f	-nam
=299	=299	=299	=299	=299	=299	=299	=299
0r	.	0r	.	3%4f	a-	3%4d	a-
.	.	.	.	3%2e	-gni	3%2c	-gni
=300	=300	=300	=300	=300	=300	=300	=300
0r	.	0r	.	3%2.d	pro-	3%4f	pro-
.	.	.	.	3c\	.	.	.
.	.	.	.	3%2B	-vi-	3%2g	-vi-
=301	=301	=301	=301	=301	=301	=301	=301
*M3/1	*	*M3/1	*	*	*	*	*
*met(O/3)	*	*met(O/3)	*	*	*	*	*
3%2A	Ad	3%2A	Ad	3%2A	-di,	3%4a	-di,
3%2A	ce-	3%2A	ce-	3%2c	.	.	.
3%2A	-nam	3%2c	-nam	3%2A	pro-	3%2e	pro-
=302	=302	=302	=302	=302	=302	=302	=302
3%4c	a-	3%4A	a-	[3%4.e	.	3%4a	.
3%2B	-gni	3%2G	-gni	.	.	3%2b	.
=303	=303	=303	=303	=303	=303	=303	=303
3%2.A	pro-	3%4c	pro-	3%2e]	.	3%4cc	-vi-
.	.	.	.	3%4A	-vi-	.	.
3G\	.	.	.	.	.	.	.
3%2F	-vi-	3%2d	-vi-	.	.	3b\	.
.	.	.	.	.	.	3a/	.
=304	=304	=304	=304	=304	=304	=304	=304
3%4.El	-di.	3%4.el	-di.	3%4.Bl	-di.	3%4.gl	-di.
!!LO:LB:i:g=z
=305||	=305||	=305||	=305||	=305||	=305||	=305||	=305||
!!section: Quinta pars: Qui jacuisti mortuus
!!!OMD: [Quinta pars:] Qui jacuisti mortuus
*M2/1	*	*M2/1	*	*M2/1	*	*M2/1	*
*met(C|)	*	*met(C|)	*	*met(C|)	*	*met(C|)	*
0r	.	0r	.	0r	.	0a	Qui
=306	=306	=306	=306	=306	=306	=306	=306
0r	.	0A	Qui	0r	.	1a	ja-
.	.	.	.	.	.	1a	-cu-
=307	=307	=307	=307	=307	=307	=307	=307
0AA	Qui	1A	ja-	0r	.	0cc	-i-
.	.	1A	-cu-	.	.	.	.
=308	=308	=308	=308	=308	=308	=308	=308
1AA	ja-	0c	-i-	0e	Qui	1cc	-sti
1AA	-cu-	.	.	.	.	[1cc	mor-
=309	=309	=309	=309	=309	=309	=309	=309
0C	-i-	1c	-sti	0e	ja-	1cc]	.
.	.	[1c	mor-	.	.	1cc	-tu-
=310	=310	=310	=310	=310	=310	=310	=310
1C	-sti	1c]	.	1e	-cu-	0g	-us
[1C	mor-	1c	-tu-	[1g	-i-	.	.
=311	=311	=311	=311	=311	=311	=311	=311
1C]	.	[0G;l	-us	1g]	.	0cc	.
1C	-tu-	.	.	1g	-sti	.	.
=312	=312	=312	=312	=312	=312	=312	=312
[0GG;l	-us	0G_	.	1g	mor-	[0b;l	.
.	.	.	.	1g	-tu-	.	.
=313	=313	=313	=313	=313	=313	=313	=313
0GG]	.	0G]	.	0d;l	-us	0b]	.
=314	=314	=314	=314	=314	=314	=314	=314
0r	.	0r	.	0d	In	0r	.
=315	=315	=315	=315	=315	=315	=315	=315
0D	In	0r	.	1d	pe-	0r	.
.	.	.	.	1d	-tra,	.	.
=316	=316	=316	=316	=316	=316	=316	=316
1D	pe-	0r	.	1f	rex	0a	In
1D	-tra,	.	.	1f	in-	.	.
=317	=317	=317	=317	=317	=317	=317	=317
0F	rex	0A	In	1f	-no-	1a	pe-
.	.	.	.	1f	-cu-	1a	-tra,
=318	=318	=318	=318	=318	=318	=318	=318
1F	in-	1A	pe-	0c	-us,	0cc	rex
[1F	-no-	1A	-tra,	.	.	.	.
=319	=319	=319	=319	=319	=319	=319	=319
1F]	.	0c	rex	0f	.	1cc	in-
1F	-cu-	.	.	.	.	[1cc	-no-
=320	=320	=320	=320	=320	=320	=320	=320
[0C;l	-us,	1c	in-	[0e;l	.	1cc]	.
.	.	[1c	-no-	.	.	1cc	-cu-
=321	=321	=321	=321	=321	=321	=321	=321
0C_	.	1c]	.	0e_	.	[0g;l	-us,
.	.	1c	-cu-	.	.	.	.
=322	=322	=322	=322	=322	=322	=322	=322
0C]	.	0G;l	-us,	0e]	.	0g]	.
=323	=323	=323	=323	=323	=323	=323	=323
0r	.	0r	.	0f	Fac	0r	.
=324	=324	=324	=324	=324	=324	=324	=324
0r	.	0r	.	1e	nos	0r	.
.	.	.	.	1d	in	.	.
=325	=325	=325	=325	=325	=325	=325	=325
0r	.	0r	.	1c	te	0cc	Fac
.	.	.	.	1c	qui	.	.
=326	=326	=326	=326	=326	=326	=326	=326
0r	.	0r	.	1.d	e-	1b	nos
.	.	.	.	.	.	[1a	in
.	.	.	.	2c\	.	.	.
=327	=327	=327	=327	=327	=327	=327	=327
0r	.	0r	.	2A/	.	1a]	.
.	.	.	.	2c\	.	.	.
.	.	.	.	1B	-sce	1g	te
=328	=328	=328	=328	=328	=328	=328	=328
0F	Fac	0r	.	0A	-re,	2a/	qui
.	.	.	.	.	.	2.cc\	e-
.	.	.	.	.	.	4b\	.
.	.	.	.	.	.	2a/	.
=329	=329	=329	=329	=329	=329	=329	=329
1E	nos	0r	.	0r	.	2g/	.
.	.	.	.	.	.	2e/	.
1D	in	.	.	.	.	1f	-sce-
=330	=330	=330	=330	=330	=330	=330	=330
1C	te	0c	Fac	0r	.	0e	-re,
1C	qui	.	.	.	.	.	.
=331	=331	=331	=331	=331	=331	=331	=331
1.D	e-	1B	nos	1r	.	0r	.
.	.	[1A	in	1f	Sem-	.	.
2C/	.	.	.	.	.	.	.
=332	=332	=332	=332	=332	=332	=332	=332
2AA/	.	2A/]	.	1e	-per	0r	.
2C/	.	1.G	te	.	.	.	.
1BB	-sce-	.	.	1d	que	.	.
=333	=333	=333	=333	=333	=333	=333	=333
0AA	-re,	1.A	qui	1.c	lau-	0cc	Sem-
.	.	2G/	.	4B\	.	.	.
.	.	.	.	4A/	.	.	.
=334	=334	=334	=334	=334	=334	=334	=334
0r	.	2E/	e-	1G	.	1b	-per
.	.	2G/	.	.	.	.	.
.	.	1F	-sce-	2A/	.	1a	que
.	.	.	.	[2c\	.	.	.
=335	=335	=335	=335	=335	=335	=335	=335
0r	.	0E	-re,	2c\]	.	1g	lau-
.	.	.	.	4B\	.	.	.
.	.	.	.	4A/	.	.	.
.	.	.	.	1B	-des	1g	-des
=336	=336	=336	=336	=336	=336	=336	=336
0A	Sem-	0r	.	4A/	red-	1a	red-
.	.	.	.	4B\	.	.	.
.	.	.	.	4c\	.	.	.
.	.	.	.	4d\	.	.	.
.	.	.	.	2e\	.	1cc	.
.	.	.	.	[2f\	.	.	.
=337	=337	=337	=337	=337	=337	=337	=337
1G	-per	0r	.	4f\]	.	2b\	.
.	.	.	.	4e\	.	.	.
.	.	.	.	1e	.	2g/	.
1F	que	.	.	.	.	1a	-de-
.	.	.	.	2d\	.	.	.
=338	=338	=338	=338	=338	=338	=338	=338
1E	lau-	0e	Sem-	2e\	.	0g	-re.
.	.	.	.	2c\	.	.	.
1E	-des	.	.	1B	-de-	.	.
=339	=339	=339	=339	=339	=339	=339	=339
1.F	red-	1d	-per	0A	-re.	0r	.
.	.	1c	que	.	.	.	.
4E\	.	.	.	.	.	.	.
4F\	.	.	.	.	.	.	.
=340	=340	=340	=340	=340	=340	=340	=340
2G\	.	1B	lau-	0r	.	0r	.
2E\	.	.	.	.	.	.	.
1D	-de-	1B	-des	.	.	.	.
=341	=341	=341	=341	=341	=341	=341	=341
0C	-re.	1.c	red-	0r	.	1g	Suc-
.	.	.	.	.	.	2g/	-cur-
.	.	2B\	.	.	.	2g/	-re
=342	=342	=342	=342	=342	=342	=342	=342
0r	.	2.A/	.	1c	Suc-	1a	no-
.	.	4G/	.	.	.	.	.
.	.	1A	-de-	2c\	-cu-	1cc	-bis
.	.	.	.	2c\	-re	.	.
=343	=343	=343	=343	=343	=343	=343	=343
0r	.	1G	-re.	1d	no-	1b	do-
.	.	1r	.	1f	-bis	1a	-mi-
=344	=344	=344	=344	=344	=344	=344	=344
0r	.	1G	Suc-	1e	do-	1g	-ne,
.	.	2G/	-cu-	1d	-mi-	1r	.
.	.	2G/	-re	.	.	.	.
=345	=345	=345	=345	=345	=345	=345	=345
1C	Suc-	1A	no-	0c	-ne,	0r	.
2C/	-cu-	1c	-bis	.	.	.	.
2C/	-re	.	.	.	.	.	.
=346	=346	=346	=346	=346	=346	=346	=346
1D	no-	1B	do-	0r	.	0r	.
1F	-bis,	1A	.	.	.	.	.
=347	=347	=347	=347	=347	=347	=347	=347
1E	do	2G/	.	0r	.	0r	.
.	.	1c	.	.	.	.	.
1D	-mi-	.	.	.	.	.	.
.	.	2B\	-mi-	.	.	.	.
=348	=348	=348	=348	=348	=348	=348	=348
0C	-ne,	0c	-ne,	1e	Quos	1g	Quos
.	.	.	.	2e\	re-	2g/	re-
.	.	.	.	2e\	-de-	2g/	-de-
=349	=349	=349	=349	=349	=349	=349	=349
0r	.	0r	.	1f	-mi-	1a	-mi-
.	.	.	.	2d\	-sti	2f/	-sti
.	.	.	.	[2e\	san-	[2g/	san-
=350	=350	=350	=350	=350	=350	=350	=350
0r	.	1r	.	4e\]	.	4g/]	.
.	.	.	.	4d\	.	4f/	.
.	.	.	.	1d	.	4e/	.
.	.	.	.	.	.	4d/	.
.	.	1A	Quos	.	.	1e	-gui-
.	.	.	.	2c#i\	-gui-	.	.
=351	=351	=351	=351	=351	=351	=351	=351
1G	Quos	1B	re-	1.d	-ne,	1d	-ne,
2G\	re-	1B	-de-	.	.	1r	.
2G\	-de-	.	.	[2e\	san-	.	.
=352	=352	=352	=352	=352	=352	=352	=352
1A	-mi-	1c	-mi-	2e\]	.	0r	.
.	.	.	.	2f\	.	.	.
2F\	-sti	2A/	-sti	2d\	.	.	.
[2G\	san-	[2B\	san-	[2e\	.	.	.
=353	=353	=353	=353	=353	=353	=353	=353
4G\]	.	4B\]	.	2e\]	.	0r	.
4F\	.	4A/	.	.	.	.	.
4E\	.	1A	.	1d	.	.	.
4D\	.	.	.	.	.	.	.
1E	-gui-	.	.	.	.	.	.
.	.	2G/	-gui-	2c#i\	-gui-	.	.
=354	=354	=354	=354	=354	=354	=354	=354
0D	-ne,	0A	-ne,	0d	-ne,	1r	.
.	.	.	.	.	.	1f	Et
=355	=355	=355	=355	=355	=355	=355	=355
0r	.	2r	.	0r	.	1e	duc
.	.	1c	Et	.	.	.	.
.	.	.	.	.	.	1g	nos
.	.	[2B\	duc	.	.	.	.
=356	=356	=356	=356	=356	=356	=356	=356
0r	.	2B\]	.	0r	.	1d	ad
.	.	1d	nos	.	.	.	.
.	.	.	.	.	.	1f	ce-
.	.	[2A/	ad	.	.	.	.
=357	=357	=357	=357	=357	=357	=357	=357
0r	.	2A/]	.	0r	.	1e	-le-
.	.	2c\	ce-	.	.	.	.
.	.	2B\	.	.	.	2d/	.
.	.	[2c\	-le-	.	.	[2e/	.
=358	=358	=358	=358	=358	=358	=358	=358
0r	.	4c\]	.	0r	.	2e/]	.
.	.	4B\	.	.	.	.	.
.	.	1A	.	.	.	2c/	.
.	.	.	.	.	.	1B	-sti-
.	.	2G#i/	-sti-	.	.	.	.
=359	=359	=359	=359	=359	=359	=359	=359
1r	.	0A	-a	1r	.	0A	-a
1F	Et	.	.	2r	.	.	.
.	.	.	.	[2c\	Et	.	.
=360	=360	=360	=360	=360	=360	=360	=360
1E	duc	0r	.	2c\]	.	0r	.
.	.	.	.	1B	duc	.	.
1G	nos	.	.	.	.	.	.
.	.	.	.	[2d\	nos	.	.
=361	=361	=361	=361	=361	=361	=361	=361
1D	ad	0r	.	2d\]	.	0r	.
.	.	.	.	1A	ad	.	.
1F	ce-	.	.	.	.	.	.
.	.	.	.	[2c\	ce-	.	.
=362	=362	=362	=362	=362	=362	=362	=362
1E	-le-	0r	.	2c\]	.	0r	.
.	.	.	.	2.B\	-le-	.	.
2D\	.	.	.	.	.	.	.
.	.	.	.	4A/	.	.	.
[2E\	.	.	.	[2c\	.	.	.
=363	=363	=363	=363	=363	=363	=363	=363
2E\]	.	0r	.	4c\]	.	0r	.
.	.	.	.	4B\	.	.	.
2C/	.	.	.	1A	.	.	.
1BB	-sti-	.	.	.	.	.	.
.	.	.	.	2G#i/	-sti-	.	.
=364	=364	=364	=364	=364	=364	=364	=364
0AA	-a	0r	.	0A	-a	1r	.
.	.	.	.	.	.	1a	E-
=365	=365	=365	=365	=365	=365	=365	=365
0r	.	1r	.	0r	.	1.cc	-ter-
.	.	1A	E-	.	.	.	.
.	.	.	.	.	.	2b\	-ne
=366	=366	=366	=366	=366	=366	=366	=366
0r	.	1.c	-ter-	0r	.	1a	pa-
.	.	.	.	.	.	1g	-cis
.	.	2B\	-ne	.	.	.	.
=367	=367	=367	=367	=367	=367	=367	=367
0r	.	1A	pa-	0r	.	2.a/	gau-
.	.	.	.	.	.	8g/L	.
.	.	.	.	.	.	8f/J	.
.	.	2G/	-cis	.	.	4e/	.
.	.	.	.	.	.	4d/	.
.	.	[2A/	gau-	.	.	[2f/	.
=368	=368	=368	=368	=368	=368	=368	=368
0r	.	4A/]	.	1r	.	4f/]	.
.	.	4E/	.	.	.	4e/	.
.	.	2G/	.	.	.	1e	.
.	.	1F	-di-	1A	E-	.	.
.	.	.	.	.	.	2d/	-di-
=369	=369	=369	=369	=369	=369	=369	=369
1r	.	[0El	-a.	1.c	-ter-	[0el	a.
1AA	E-	.	.	.	.	.	.
.	.	.	.	2B\	-ne	.	.
=370	=370	=370	=370	=370	=370	=370	=370
1.C	-ter-	0E_	.	1A	pa-	0e_	.
.	.	.	.	1G	-cis	.	.
2BB/	-ne	.	.	.	.	.	.
=371	=371	=371	=371	=371	=371	=371	=371
1AA	pa-	0E_	.	1A	gau-	0e_	.
2GG/	-cis	.	.	2B\	.	.	.
[2AA/	gau-	.	.	[2c\	.	.	.
=372	=372	=372	=372	=372	=372	=372	=372
2AA/]	.	0E_	.	2c\]	.	0e_	.
2GG/	.	.	.	4B\	.	.	.
.	.	.	.	4A/	.	.	.
1AA	-di-	.	.	1c	-di-	.	.
=373	=373	=373	=373	=373	=373	=373	=373
0EEl	-a.	0E]	.	0Bl	-a.	0e]	.
!!LO:LB:i:g=z
=374||	=374||	=374||	=374||	=374||	=374||	=374||	=374||
!!section: Sexta pars: Christum ducem, qui per crucem
!!!OMD: [Sexta pars:] Christum ducem, qui per crucem
*M2/1	*	*M2/1	*	*M2/1	*	*M2/1	*
*met(C|)	*	*met(C|)	*	*met(C|)	*	*met(C|)	*
0r	.	0r	.	1d	Chri-	1d	Chri-
.	.	.	.	[1d	-stum	[1f	-stum
=375	=375	=375	=375	=375	=375	=375	=375
0r	.	0r	.	1d]	.	1f]	.
.	.	.	.	1e	du-	1g	du-
=376	=376	=376	=376	=376	=376	=376	=376
0r	.	0r	.	1c	-cem	1e	-cem
.	.	.	.	1d	.	1d	.
=377	=377	=377	=377	=377	=377	=377	=377
1D	Qui	1D	Qui	0r	.	0r	.
[1D	per	[1F	per	.	.	.	.
=378	=378	=378	=378	=378	=378	=378	=378
1D]	.	1F]	.	0r	.	0r	.
1E	cru-	1G	cru-	.	.	.	.
=379	=379	=379	=379	=379	=379	=379	=379
1C	-cem	1E	-cem	0r	.	0r	.
1D	.	1D	.	.	.	.	.
=380	=380	=380	=380	=380	=380	=380	=380
0r	.	0r	.	1d	Re-	1d	Re-
.	.	.	.	[1d	-de-	[1f	-de-
=381	=381	=381	=381	=381	=381	=381	=381
0r	.	0r	.	1d]	.	1f]	.
.	.	.	.	1e	-mit	1g	-mit
=382	=382	=382	=382	=382	=382	=382	=382
0r	.	0r	.	1c	nos	0a	nos
.	.	.	.	1A	.	.	.
=383	=383	=383	=383	=383	=383	=383	=383
1D	Re-	1D	Re-	0r	.	0r	.
[1D	-de-	[1F	-de-	.	.	.	.
=384	=384	=384	=384	=384	=384	=384	=384
1D]	.	1F]	.	0r	.	0r	.
1E	-mit	1G	-mit	.	.	.	.
=385	=385	=385	=385	=385	=385	=385	=385
1C	nos	0A	nos	0r	.	0r	.
1AA	.	.	.	.	.	.	.
=386	=386	=386	=386	=386	=386	=386	=386
0r	.	0r	.	1d	ab	1a	ab
.	.	.	.	1d	ho-	1b-i	ho-
=387	=387	=387	=387	=387	=387	=387	=387
0r	.	0r	.	1c	.	1a	.
.	.	.	.	1B-i	-sti-	1g	-sti-
=388	=388	=388	=388	=388	=388	=388	=388
0r	.	0r	.	0A	-bus,	0a	-bus,
=389	=389	=389	=389	=389	=389	=389	=389
1D	ab	1A	ab	0r	.	0r	.
1D	ho-	1B-i	ho-	.	.	.	.
=390	=390	=390	=390	=390	=390	=390	=390
1C	.	1A	.	0r	.	0r	.
1BB-i	-sti-	1G	-sti-	.	.	.	.
=391	=391	=391	=391	=391	=391	=391	=391
0AA	-bus,	0A	-bus,	0r	.	0r	.
=392	=392	=392	=392	=392	=392	=392	=392
0r	.	0r	.	1d	Lau-	1d	Lau
.	.	.	.	[1d	-det	[1f	-det
=393	=393	=393	=393	=393	=393	=393	=393
0r	.	0r	.	1d]	.	1f]	.
.	.	.	.	1e	ce-	1g	ce-
=394	=394	=394	=394	=394	=394	=394	=394
0r	.	0r	.	1c	-tus,	1e	-tus,
.	.	.	.	1d	.	1d	.
=395	=395	=395	=395	=395	=395	=395	=395
1D	no-	1D	no-	0r	.	0r	.
[1D	-ster	[1F	-ster	.	.	.	.
=396	=396	=396	=396	=396	=396	=396	=396
1D]	.	1F]	.	0r	.	0r	.
1E	le-	1G	le-	.	.	.	.
=397	=397	=397	=397	=397	=397	=397	=397
1C	-tus,	1E	-tus,	0r	.	0r	.
1D	.	1D	.	.	.	.	.
=398	=398	=398	=398	=398	=398	=398	=398
1r	.	1r	.	1r	.	1r	.
1D	E-	1A	E-	1d	E-	1f	E-
=399	=399	=399	=399	=399	=399	=399	=399
1C	-xul-	1.c	-xul-	1e	-xul-	2e/	-xul
.	.	.	.	.	.	2f/	.
1C	tet	.	.	1e	-tet	1g	.
.	.	2B\	.	.	.	.	.
=400	=400	=400	=400	=400	=400	=400	=400
[0D	ce-	2A/	.	[0d	ce-	1f	-tet
.	.	2G/	.	.	.	.	.
.	.	1A	-tet	.	.	[1f	ce-
=401	=401	=401	=401	=401	=401	=401	=401
1D]	.	1r	.	1d]	.	2f/]	.
.	.	.	.	.	.	2e/	.
1D	-lum	[1A	ce-	1f	-lum	1d	-lum
=402	=402	=402	=402	=402	=402	=402	=402
1AA	lau-	1A]	.	1e	lau-	1c	lau-
1BB	-di-	1D	-lum	1d	-di-	1d	.
=403	=403	=403	=403	=403	=403	=403	=403
[0AA;	-bus.	1A	lau-	[0c;	-bus.	1e	.
.	.	1A	-di-	.	.	1e	-di-
=404	=404	=404	=404	=404	=404	=404	=404
0AA]	.	0A;	-bus.	0c]	.	0e;	-bus.
=405	=405	=405	=405	=405	=405	=405	=405
1D	Pe-	0r	.	0r	.	0r	.
1D	-na	.	.	.	.	.	.
=406	=406	=406	=406	=406	=406	=406	=406
1C	.	1A	Pe-	1r	.	0r	.
1D	for-	1A	-na	1d	Pe-	.	.
=407	=407	=407	=407	=407	=407	=407	=407
1BB	-tis	1G	.	1d	-na	0r	.
1AA	.	1A	for-	[1c	.	.	.
=408	=408	=408	=408	=408	=408	=408	=408
0r	.	1F	-tis	2c\]	.	1a	Pe-
.	.	.	.	1.d	for-	.	.
.	.	1D	.	.	.	1a	-na
=409	=409	=409	=409	=409	=409	=409	=409
1r	.	1E	tu-	1B	-tis	1g	.
[1D	tu-	[1F	-e	[1A	.	1a	for-
=410	=410	=410	=410	=410	=410	=410	=410
1D]	.	1F]	.	2A/]	.	1f	-tis
.	.	.	.	1d	tu-	.	.
1GG	-e	1G	mor-	.	.	1d	.
.	.	.	.	4c\	.	.	.
.	.	.	.	4B\	.	.	.
=411	=411	=411	=411	=411	=411	=411	=411
2r	.	1E	-tis	1c	.	1e	tu-
2C/	mor-	.	.	.	.	.	.
2D\	.	1D	.	1F	-e	[1f	-e
[2F\	.	.	.	.	.	.	.
=412	=412	=412	=412	=412	=412	=412	=412
2F\]	.	1r	.	1r	.	1f]	.
4E\	.	.	.	.	.	.	.
4D\	.	.	.	.	.	.	.
1E	-tis	1C	Et	2r	.	1g	mor-
.	.	.	.	[2c\	mor-	.	.
=413	=413	=413	=413	=413	=413	=413	=413
1C	Et	1.G	san-	2c\]	.	1e	-tis
.	.	.	.	4B\	.	.	.
.	.	.	.	4A/	.	.	.
[1G	san-	.	.	2B\	.	1d	.
.	.	2A/	.	2c\	.	.	.
=414	=414	=414	=414	=414	=414	=414	=414
1G]	.	1B	.	2d\	.	1r	.
.	.	.	.	2B\	.	.	.
1A	-gui-	[1c	.	[1e	-tis	1c	Et
=415	=415	=415	=415	=415	=415	=415	=415
0E	-nis,	1c]	.	1e]	.	0g	san-
.	.	1B	-gui-	1e	Et	.	.
=416	=416	=416	=416	=416	=416	=416	=416
0r	.	1A	-nis	1c	san-	1a	-gui-
.	.	1G	.	[1d	-gui-	[1b	-nis
=417	=417	=417	=417	=417	=417	=417	=417
0r	.	1.d	ef-	2d\]	.	1b]	.
.	.	.	.	1f	-nis	.	.
.	.	.	.	.	.	1a	ef-
.	.	2c\	.	2e\	ef-	.	.
=418	=418	=418	=418	=418	418	=418	=418
0r	.	2A/	-fu-	2c\	-fu-	2cc\	-fu-
.	.	2G/	.	2d\	.	2b\	.
.	.	2c\	.	2e\	.	1a	.
.	.	2d\	.	2f\	.	.	.
=419	=419	=419	=419	=419	=419	=419	=419
1E	et	1B	-si-	1e	-si-	1g#i	-si-
1F	san-	[1A	-o	1c	-o,	[1a	-o
=420	=420	=420	=420	=420	=420	=420	=420
2D\	-gui-	1A]	.	2.d\	ef-	1a]	.
1F	-nis	.	.	.	.	.	.
.	.	.	.	4c\	.	.	.
.	.	1r	.	2A/	.	1r	.
2E\	ef-	.	.	2c\	.	.	.
=421	=421	=421	=421	=421	=421	=421	=421
2D\	-fu-	1d	Cor-	4B\	-fu-	0r	.
.	.	.	.	4A/	.	.	.
2C/	.	.	.	1A	.	.	.
1BB	-si-	1d	-da	.	.	.	.
.	.	.	.	2G#i/	-si-	.	.
=422	=422	=422	=422	=422	=422	=422	=422
1AA	-o	1c	.	1A	-o	1a	Cor-
1r	.	1d	te-	1D	Cor-	1a	-da
=423	=423	=423	=423	=423	=423	=423	=423
0r	.	1B	-rant,	1E	-da	1g	.
.	.	[1A	.	1F	te-	1a	te-
=424	=424	=424	=424	=424	=424	=424	=424
0r	.	1A]	.	0D	-rant,	1f	-rant,
.	.	1B	ut	.	.	1d	.
=425	=425	=425	=425	=425	=425	=425	=425
0r	.	1c	.	0r	.	0e	ut
.	.	[1A	te	.	.	.	.
=426	=426	=426	=426	=426	=426	=426	=426
0r	.	1A]	.	0r	.	1f	te
.	.	1G	.	.	.	1g	.
=427	=427	=427	=427	=427	=427	=427	=427
0r	.	2A/	que-	0r	.	2f/	que-
.	.	2c\	.	.	.	2e/	.
.	.	1B	.	.	.	1d	.
=428	=428	=428	=428	=428	=428	=428	=428
0r	.	1A	-rant,	0r	.	1c	-rant,
.	.	1r	.	.	.	1r	.
=429	=429	=429	=429	=429	=429	=429	=429
0D	Je-	0F	Je-	0A	Je-	0f	Je-
=430	=430	=430	=430	=430	=430	=430	=430
1.C	-su	[0G	-su	0c	-su	1.e	-su
2D\	.	.	.	.	.	2f/	.
=431	=431	=431	=431	=431	=431	=431	=431
1E	nos-	1G]	.	1B	nos-	1g	nos-
[1F	-tra	1F	nos-	2A/	-tra	[1a	-tra
.	.	.	.	[2c\	.	.	.
=432	=432	=432	=432	=432	=432	=432	=432
1F]	.	0c	-tra	2c\]	.	1a]	.
.	.	.	.	2d\	.	.	.
1E	.	.	.	1e	.	1g	.
=433	=433	=433	=433	=433	=433	=433	=433
1D	re-	0d	.	0f	re-	1f	re-
1BB	.	.	.	.	.	1d	.
=434	=434	=434	=434	=434	=434	=434	=434
1D	.	1A	re-	1d	.	1f	.
[1C	-demp-	[1c	-demp-	[1e	-demp-	2.e/	-demp-
.	.	.	.	.	.	4f/	.
=435	=435	=435	=435	=435	=435	=435	=435
1C]	.	2c\]	.	1e]	.	2g/	.
.	.	2B\	.	.	.	2e/	.
1D	-ti-	2.A/	-ti-	1d	-ti-	1f	-ti-
.	.	4G/	.	.	.	.	.
=436	=436	=436	=436	=436	=436	=436	=436
0AA;	-o.	0A;	-o.	0c;	-o.	0e;	-o.
=437	=437	=437	=437	=437	=437	=437	=437
0r	.	0r	.	1d	Per	1a	Per
.	.	.	.	[1f	fe-	[1a	fe-
=438	=438	=438	=438	=438	=438	=438	=438
0r	.	0r	.	1f]	.	1a]	.
.	.	.	.	1g	-li-	1b-i	-li-
=439	=439	=439	=439	=439	=439	=439	=439
0r	.	0r	.	1e	-ces	1g	-ces
.	.	.	.	1f	.	1f	.
=440	=440	=440	=440	=440	=440	=440	=440
1D	ci-	1A	ci-	0r	.	0r	.
[1F	-ca-	[1A	-ca-	.	.	.	.
=441	=441	=441	=441	=441	=441	=441	=441
1F]	.	1A]	.	0r	.	0r	.
1G	-tri-	1B-i	-tri-	.	.	.	.
=442	=442	=442	=442	=442	=442	=442	=442
1E	-ces,	1G	-ces	0r	.	0r	.
1F	.	1F	.	.	.	.	.
=443	=443	=443	=443	=443	=443	=443	=443
0r	.	0r	.	1r	.	1d	Spu-
.	.	.	.	1d	Spu-	[1f	-ta,
=444	=444	=444	=444	=444	=444	=444	=444
0r	.	0r	.	0f	-ta,	1f]	.
.	.	.	.	.	.	1d	fla-
=445	=445	=445	=445	=445	=445	=445	=445
0r	.	0r	.	1d	fla-	1.f	-gel-
.	.	.	.	[1f	-gel-	.	.
.	.	.	.	.	.	2g/	.
=446	=446	=446	=446	=446	=446	=446	=446
0r	.	0r	.	2f\]	.	2.a/	.
.	.	.	.	2e\	.	.	.
.	.	.	.	.	.	4b\	.
.	.	.	.	2c\	-la,	2cc\	-la,
.	.	.	.	[2d\	ver-	[2b\	ver-
=447	=447	=447	=447	=447	=447	=447	=447
0r	.	0r	.	4d\]	.	4b\]	.
.	.	.	.	4c\	.	4a/	.
.	.	.	.	2A/	.	1a	.
.	.	.	.	1B	-be-	.	.
.	.	.	.	.	.	2g#i/	-be-
=448	=448	=448	=448	=448	=448	=448	=448
1r	.	1D	Spu-	0A	-ra,	0a	-ra,
1D	Spu-	[1F	-ta,	.	.	.	.
=449	=449	=449	=449	=449	=449	=449	=449
0F	-ta,	1F]	.	0r	.	0r	.
.	.	1D	fla-	.	.	.	.
=450	=450	=450	=450	=450	=450	=450	=450
1D	fla-	1.F	-gel-	0r	.	0r	.
[1F	-gel-	.	.	.	.	.	.
.	.	2G/	.	.	.	.	.
=451	=451	=451	=451	=451	=451	=451	=451
2F\]	.	2.A/	.	0r	.	0r	.
2E\	.	.	.	.	.	.	.
.	.	4B\	.	.	.	.	.
2C/	-la,	2c\	-la,	.	.	.	.
[2D\	ver-	[2B\	ver-	.	.	.	.
=452	=452	=452	=452	=452	=452	=452	=452
4D\]	.	4B\]	.	0r	.	0r	.
4C/	.	4A/	.	.	.	.	.
2AA/	.	1A	.	.	.	.	.
1BB	-be-	.	.	.	.	.	.
.	.	2G#i/	-be-	.	.	.	.
=453	=453	=453	=453	=453	=453	=453	=453
0AA	-ra,	0A	-ra,	0r	.	0r	.
=454	=454	=454	=454	=454	=454	=454	=454
0r	.	0r	.	1d	No-	1a	No-
.	.	.	.	[1f	-bis	[1a	-bis
=455	=455	=455	=455	=455	=455	=455	=455
0r	.	0r	.	1f]	.	1a]	.
.	.	.	.	1g	gra-	1b-i	gra-
=456	=456	=456	=456	=456	=456	=456	=456
0r	.	0r	.	1e	-ta	1g	-ta
.	.	.	.	1f	.	1f	.
=457	=457	=457	=457	=457	=457	=457	=457
1D	sint	1A	sint	0r	.	0r	.
[1F	col-	[1A	col-	.	.	.	.
=458	=458	=458	=458	=458	=458	=458	=458
1F]	.	1A]	.	0r	.	0r	.
1G	-la-	1B-i	-la-	.	.	.	.
=459	=459	=459	=459	=459	=459	=459	=459
1E	-ta	1G	-ta	0r	.	0r	.
1F	.	1F	.	.	.	.	.
=460	=460	=460	=460	=460	=460	=460	=460
1r	.	1r	.	1r	.	1r	.
1D	E-	1A	E-	1d	E-	1f	E-
=461	=461	=461	=461	=461	=461	=461	=461
1C	-ter-	1.c	-ter-	1e	-ter-	2.e/	-ter-
.	.	.	.	.	.	4f/	.
1C	-na	.	.	1e	-na	1g	.
.	.	2B\	.	.	.	.	.
=462	=462	=462	=462	=462	=462	=462	=462
[0D	Chri-	2A/	.	[0d	Chri-	1f	-na
.	.	2G/	.	.	.	.	.
.	.	1A	-na	.	.	[1f	Chri-
=463	=463	=463	=463	=463	=463	=463	=463
1D]	.	1r	.	1d]	.	2f/]	.
.	.	.	.	.	.	2e/	.
1D	-sti	[1A	Chri-	1f	-sti	1d	-sti
=464	=464	=464	=464	=464	=464	=464	=464
1AA	mu-	1A]	.	1e	mu-	1c	mu-
1BB	-ne-	1D	-sti	1d	-ne-	1d	.
=465	=465	=465	=465	=465	=465	=465	=465
[0AA;	-ra.	1A	mu-	[0c;	-ra.	1e	.
.	.	1A	-ne-	.	.	1e	-ne-
=466	=466	=466	=466	=466	=466	=466	=466
0AA]	.	0A;	-ra.	0c]	.	0e;	-ra.
=467	=467	=467	=467	=467	=467	=467	=467
*M3/1	*	*M3/1	*	*M3/1	*	*M3/1	*
*met(O/3)	*	*met(O/3)	*	*met(O/3)	*	*met(O/3)	*
0.r	.	0.r	.	1f	No-	1a	No-
.	.	.	.	1f	-strum	1a	-strum
.	.	.	.	1f	tan-	1a	tan-
=468	=468	=468	=468	=468	=468	=468	=468
0.r	.	0.r	.	0e	-gat	0g	-gat
.	.	.	.	1e	cor,	1g	cor,
=469	=469	=469	=469	=469	=469	=469	=469
0.r	.	0.r	.	1f	ut	1a	ut
.	.	.	.	1e	.	1g	.
.	.	.	.	1d	plan-	1f	plan-
=470	=470	=470	=470	=470	=470	=470	=470
1r	.	1r	.	1e	-gat,	1e	-gat,
1r	.	1r	.	1c	.	1r	.
1AA	Tu-	1A	Tu-	1r	.	1e	Tu-
=471	=471	=471	=471	=471	=471	=471	=471
0D	-o-	0A	-o-	1d	Tu-	1f	-o-
.	.	.	.	1f	-o-	1d	.
1C	-rum	1c	-rum	1e	-rum	1e	-rum
=472	=472	=472	=472	=472	=472	=472	=472
0D	san-	0A	san-	1d	san-	1f	san-
.	.	.	.	1f	.	1d	.
1C	-guis	1c	-guis	1e	-guis	1e	-guis
=473	=473	=473	=473	=473	=473	=473	=473
1D	vul-	1B	vul-	0d	vul-	0f	vul-
1F	.	1A	.	.	.	.	.
1E	-ne-	1G#i	-ne-	1B	-ne-	1g	-ne-
=474	=474	=474	=474	=474	=474	=474	=474
0AA	-rum,	0A	-rum,	1c	-rum,	1e	-rum,
.	.	.	.	1r	.	1r	.
1r	.	1r	.	1c	In	1e	In
=475	=475	=475	=475	=475	=475	=475	=475
0.r	.	0.r	.	1d	quo	1f	quo
.	.	.	.	1B	.	1d	.
.	.	.	.	1c	to-	1e	to-
=476	=476	=476	=476	=476	=476	=476	=476
0.r	.	0.r	.	0d	-ti	1f	-ti
.	.	.	.	.	.	1d	.
.	.	.	.	1f	si-	1a	si-
=477	=477	=477	=477	=477	=477	=477	=477
0.r	.	0.r	.	1f	-mus	1a	-mus
.	.	.	.	1e	.	1g	.
.	.	.	.	1d	lo-	1f	lo-
=478	=478	=478	=478	=478	=478	=478	=478
0.r	.	0.r	.	1e	-ti,	0e	-ti,
.	.	.	.	1c	.	.	.
.	.	.	.	1r	.	1r	.
=479	=479	=479	=479	=479	=479	=479	=479
0C	Con-	1.E	Con-	1.G	Con-	0e	Con-
.	.	2F/	.	2A/	.	.	.
1BB	.	1G	.	1B	.	1d	.
=480	=480	=480	=480	=480	=480	=480	=480
0AA	-di-	0A	-di-	1c	-di-	0c	-di-
.	.	.	.	1A	.	.	.
1AA	-tor	1A	-tor	1c	-tor	1e	-tor
=481	=481	=481	=481	=481	=481	=481	=481
0E	al-	0G	al-	0B	al-	0g	al-
1E	-me	1G	-me	1c	-me	1g	-me
=482	=482	=482	=482	=482	=482	=482	=482
0F	si-	0c	si-	1A	si-	0a	si-
.	.	.	.	1c	.	.	.
1F	-de-	1A	-de-	1d	-de-	1a	-de-
=483	=483	=483	=483	=483	=483	=483	=483
0.E;	-rum.	0.B;	-rum.	0.e;	-rum.	0.g;	-rum.
=484	=484	=484	=484	=484	=484	=484	=484
1D	Par-	1d	Par-	1f	Par-	1a	Par-
1D	-si-	1d	-si-	1f	-si-	1a	-si-
1D	-o-	1d	-o-	1f	-o-	1b	-o-
=485	=485	=485	=485	=485	=485	=485	=485
0A	-nis	1c	-nis	0e	-nis	0cc	-nis
.	.	1A	.	.	.	.	.
1G	tu-	1B	tu-	1e	tu-	1b	tu-
=486	=486	=486	=486	=486	=486	=486	=486
1F	-e	1.c	-e	1f	-e	1a	-e
1C	.	.	.	1e	.	1g	.
.	.	2B\	.	.	.	.	.
1D	do-	2.A/	do-	1d	do-	1f	do-
.	.	4G/	.	.	.	.	.
=487	=487	=487	=487	=487	=487	=487	=487
0AA	-nis	0A	-nis	0c	-nis	0e	-nis
1r	.	1r	.	1r	.	1r	.
=488	=488	=488	=488	=488	=488	=488	=488
0.r	.	0.r	.	1c	Sal-	1e	Sal-
.	.	.	.	1d	-va-	1f	-va-
.	.	.	.	1e	-tor	1g	-tor
=489	=489	=489	=489	=489	=489	=489	=489
0.r	.	0.r	.	0f	nos	0a	nos
.	.	.	.	1e	in-	1g	in-
=490	=490	=490	=490	=490	=490	=490	=490
0.r	.	0.r	.	1d	-e-	1f	-e-
.	.	.	.	1B	.	1g	.
.	.	.	.	1c#i	-bri-	1e	-bri-
=491	=491	=491	=491	=491	=491	=491	=491
0.r	.	0.r	.	0d	-a,	0d	-a,
.	.	.	.	1r	.	1r	.
=492	=492	=492	=492	=492	=492	=492	=492
1D	Ac	1d	Ac	1f	Ac	1a	Ac
1D	e-	1d	e-	1f	e-	1a	e-
1D	-ti-	1d	-ti-	1f	-ti-	1b	-ti-
=493	=493	=493	=493	=493	=493	=493	=493
0A	-am	1c	-am	0e	-am	0cc	-am
.	.	1A	.	.	.	.	.
1G	da-	1B	da-	1e	da-	1b	da-
=494	=494	=494	=494	=494	=494	=494	=494
1F	-re	1.c	-re	1f	-re	1a	-re
1C	.	.	.	1e	.	1g	.
.	.	2B\	.	.	.	.	.
1D	ve-	2.A/	ve-	1d	ve-	1f	ve-
.	.	4G/	.	.	.	.	.
=495	=495	=495	=495	=495	=495	=495	=495
0AA	-lis	0A	-lis	0c	-lis	0e	-lis
1r	.	1r	.	1r	.	1r	.
=496	=496	=496	=496	=496	=496	=496	=496
0.r	.	0.r	.	1d	Be-	1d	Be-
.	.	.	.	1d	-a-	1d	-a-
.	.	.	.	1d	-ta	1f	-ta-
=497	=497	=497	=497	=497	=497	=497	=497
0.r	.	0.r	.	0f	no-	0d	no-
.	.	.	.	1e	-bis	1c	-bis
=498	=498	=498	=498	=498	=498	=498	=498
0.r	.	0.r	.	1.d	gau-	0f	gau-
.	.	.	.	2c\	.	.	.
.	.	.	.	1B	-di-	1g	-di-
=499	=499	=499	=499	=499	=499	=499	=499
1A	Be-	1A	Be-	1A	-a,	0a	-a,
1A	-a-	1A	-a-	1c	.	.	.
1A	-ta	1c	-ta	1A	no-	1e	no-
=500	=500	=500	=500	=500	=500	=500	=500
0c	no-	0A	no-	1e	.	0a	.
.	.	.	.	1c	.	.	.
1B	-bis	1G	-bis	1d	-bis	1b	-bis
=501	=501	=501	=501	=501	=501	=501	=501
1.A	gau-	0c	gau-	1e	gau-	0cc	gau-
.	.	.	.	0A	-di-	.	.
2G\	.	.	.	.	.	.	.
1F	-di-	1d	-di-	.	.	2b\	-di-
.	.	.	.	.	.	2a/	.
=502	=502	=502	=502	=502	=502	=502	=502
0.El	-a.	0.el	-a.	0.Bl	-a.	0.gl	-a.
==	==	==	==	==	==	==	==
*-	*-	*-	*-	*-	*-	*-	*-
!!!RDF**kern: l=long note in original notation
!!!RDF**kern: i=editorial accidental
!!!ENC: Jesse Rodin; 2011/05/27
!!!END: 2011/05/27/
!!!EED: Jesse Rodin
!!!EEV: 2011/08/24/
!!attribution-level@Jos: 1 (secure, core group [checkmark])
!!!ONB: Translated from MusicXML and edited on 2011/08/17/ by Craig Sapp
!!muse2ps: C^@{COM}^i2I150v90,90,90,120c130z18l2700t130
